!!!!SEGMENT: pl-sa--221-a-vi-25--001_hasse-johann-adolf--amor-mi-jesu.krn
!!!cenid: 17xx:383
!!!COM: Hasse, Johann Adolf
!!!COM-rismID: pe51928
!!!CDT: 1699/03/25-1783/12/16
!!!CNT: German
!!!OTL: Amor mi Jesu
!!!PDT:
!!!AGN: Sacred
!!!SMS-siglum: PL-SA
!!!SMS-shelfmark: 221/A VI 25
!!!SMS-shelfwork: 001 W
!!!NIFC-rismSourceID: 1001041289
!!!NIFC-islandoraID:
!!!URL-pdf-islandora:
!!!URL-scan: https://bc.bdsandomierz.pl/dlibra/publication/1577/edition/1545/content @EN{Scan in the Sandomierz Diocese Digital Library} @PL{Skany w portalu Cyfrowa Biblioteka Diecezjalna w Sandomierzu}
!!!ONB-nifc:
!!!AIN: 1 alto 1 organ 2 violn 1 vox
!!!key:
**kern	**dynam	**kern	**dynam	**kern	**dynam	**kern	**text	**text	**kern	**text
*part5	*part5	*part4	*part4	*part3	*part3	*part2	*part2	*part2	*part1	*part1
*staff5	*	*staff4	*	*staff3	*	*staff2	*staff2	*staff2	*staff1	*staff1
*Iorgan	*	*Ivioln	*	*Ivioln	*	*Ialto	*	*	*Ivox	*
*I"Organo	*	*I"Violino Secundo	*	*I"Violino Primo	*	*I"Alto	*	*	*I"Canto	*
*I'Org.	*	*I'V-no II	*	*I'V-no I	*	*I'A.	*	*	*I'C.	*
*clefF4	*	*clefG2	*	*clefG2	*	*clefC3	*	*	*clefC1	*
*k[f#c#]	*	*k[f#c#]	*	*k[f#c#]	*	*k[c#f#]	*	*	*k[f#c#]	*
*D:	*	*D:	*	*D:	*	*D:	*	*	*D:	*
*M4/4	*	*M4/4	*	*M4/4	*	*M4/4	*	*	*M4/4	*
*met(c)	*	*met(c)	*	*met(c)	*	*met(c)	*	*	*met(c)	*
=1	=1	=1	=1	=1	=1	=1	=1	=1	=1	=1
*	*	*	*	*	*below	*	*	*	*	*
!LO:TX:a:t=Adagio	!	!LO:TX:rj:a:t=Adagio	!	!LO:TX:a:t=Adagio	!	!	!	!	!	!
8D\L	.	8.a/L	.	8a/L	.	00r	.	.	1ryy	.
8D\	.	.	.	16.f#/L	.	.	.	.	.	.
.	.	32f#/LL	.	.	.	.	.	.	.	.
.	.	32g/JJJ	.	32g/JJk	.	.	.	.	.	.
8D\	.	8a/L	.	8a/L	.	.	.	.	.	.
8D\J	.	8dd/J	.	8dd/J	.	.	.	.	.	.
.	.	8qqee/	.	8qqee/	.	.	.	.	.	.
8A\L	.	8dd\L	.	8dd\L	.	.	.	.	.	.
8A\	.	8cc#\J	.	8cc#\J	.	.	.	.	.	.
8A\	.	8r	.	8r	.	.	.	.	.	.
8F#\J	.	8a/	.	8a/	.	.	.	.	.	.
=2	=2	=2	=2	=2	=2	=2	=2	=2	=2	=2
8G\L	.	16.b\LL	.	16.b\LL	.	.	.	.	1ryy	.
.	.	32gg\K	.	32gg\K	.	.	.	.	.	.
8G\	.	16.b\	.	16.b\	.	.	.	.	.	.
.	.	32gg\JJk	.	32gg\JJk	.	.	.	.	.	.
!	!	!LO:TX:a:t=P:problem=mixed beam	!	!LO:TX:a:t=P:problem=mixed beam	!	!	!	!	!	!
8G\	.	8c#/L	.	8c#/L	.	.	.	.	.	.
8G\J	.	8b\	.	8b\	.	.	.	.	.	.
8D\L	.	8b\	.	8b\	.	.	.	.	.	.
8D\	.	8a\J	.	8a\J	.	.	.	.	.	.
8D\	.	8r	.	8r	.	.	.	.	.	.
8D\J	.	8f#/	.	8f#/	.	.	.	.	.	.
=3	=3	=3	=3	=3	=3	=3	=3	=3	=3	=3
8AA/L	.	16.g\LL	.	16.g\LL	.	.	.	.	1ryy	.
.	.	32ee\K	.	32ee\K	.	.	.	.	.	.
8AA/	.	16.g\	.	16.g\	.	.	.	.	.	.
.	.	32ee\JJk	.	32ee\JJk	.	.	.	.	.	.
8AA/	.	8A/L	.	8A/L	.	.	.	.	.	.
8AA/J	.	8g/	.	8g/J	.	.	.	.	.	.
8D\L	.	8g/	.	8g/L	.	.	.	.	.	.
8D\J	.	8f#/J	.	8f#/J	.	.	.	.	.	.
8r	.	[<4dd\	.	[4dd\	.	.	.	.	.	.
8FF#/	.	.	.	.	.	.	.	.	.	.
=4	=4	=4	=4	=4	=4	=4	=4	=4	=4	=4
*	*	*	*	*Xtuplet	*	*	*	*	*	*
8GG/L	.	8.dd\L]	.	8dd\L]	.	.	.	.	1ryy	.
!	!	!	!	!LO:N:vis=48	!	!	!	!	!	!
8GG/	.	.	.	24cc#\L	.	.	.	.	.	.
!	!	!	!	!LO:N:vis=48	!	!	!	!	!	!
.	.	.	.	24b\	.	.	.	.	.	.
*	*	*Xtuplet	*	*	*	*	*	*	*	*
.	.	48cc#\LL	.	.	.	.	.	.	.	.
!	!	!	!	!LO:N:vis=48	!	!	!	!	!	!
.	.	48b\	.	24a\JJ	.	.	.	.	.	.
.	.	48a\JJJ	.	.	.	.	.	.	.	.
8GG/	.	8g/L	.	8g/L	.	.	.	.	.	.
8GG#X/J	.	8f#/J	.	8f#/	.	.	.	.	.	.
8AA/L	.	8f#/L	.	8f#/	.	.	.	.	.	.
8AA/	.	8e/J	.	8e/J	.	.	.	.	.	.
8AA/	.	8r	.	8r	.	.	.	.	.	.
8AA/J	.	8c#/	.	8e/	.	.	.	.	.	.
=5	=5	=5	=5	=5	=5	=5	=5	=5	=5	=5
8AA/L	.	16d/LL	.	(16f#/LL	.	00r	.	.	1ryy	.
.	.	16f#'/	.	16a'/	.	.	.	.	.	.
8AA/	.	16f#'/	.	16a'/	.	.	.	.	.	.
.	.	16f#'/JJ	.	16a'/JJ)	.	.	.	.	.	.
8AA/	.	32f#'/LLL	.	32a'\LLL	.	.	.	.	.	.
.	.	32b'/	.	32dd'\	.	.	.	.	.	.
.	.	32b'/	.	32dd'\	.	.	.	.	.	.
.	.	32a'/JJJ	.	32cc#'\JJJ	.	.	.	.	.	.
8AA/J	.	32g'/LLL	.	32b/LLL	.	.	.	.	.	.
.	.	32f#'/	.	32a/	.	.	.	.	.	.
.	.	32e'/	.	32g/	.	.	.	.	.	.
.	.	32d'/JJJ	.	32f#/JJJ	.	.	.	.	.	.
!	!	!	!	!LO:LB:g=original	!	!	!	!	!	!
.	.	.	.	8qqf#/	.	.	.	.	.	.
!	!LO:DY:a:t=po.	!	!	!	!	!	!	!	!	!
8AA/L	p	16.c#/LL	.	16.e/LL	.	.	.	.	.	.
.	.	32d/JK	.	32f#/JK	.	.	.	.	.	.
8AA/	.	8e/J	.	8g/J	.	.	.	.	.	.
8AA/	.	8r	.	8r	.	.	.	.	.	.
8AA/J	.	8c#/	.	8e/	.	.	.	.	.	.
!	!	!LO:LB:g=original	!	!	!	!	!	!	!	!
=6	=6	=6	=6	=6	=6	=6	=6	=6	=6	=6
8AA/L	.	16d/LL	.	16f#/LL	.	.	.	.	1ryy	.
.	.	16f#'/	.	16a'/	.	.	.	.	.	.
8AA/	.	16f#'/	.	16a'/	.	.	.	.	.	.
.	.	16f#'/JJ	.	16a'/JJ	.	.	.	.	.	.
8AA/	.	32f#/LLL	.	32a'\LLL	.	.	.	.	.	.
.	.	32b/	.	32dd'\	.	.	.	.	.	.
.	.	32b/	.	32dd'\	.	.	.	.	.	.
.	.	32a/JJJ	.	32cc#'\JJJ	.	.	.	.	.	.
8AA/J	.	32g/LLL	.	32b'/LLL	.	.	.	.	.	.
.	.	32f#/	.	32a'/	.	.	.	.	.	.
.	.	32e/	.	32g'/	.	.	.	.	.	.
.	.	32d/JJJ	.	32f#'/JJJ	.	.	.	.	.	.
.	.	.	.	8qqf#/	.	.	.	.	.	.
!	!LO:DY:a	!	!	!	!	!	!	!	!	!
8AA/L	f	16.c#/LL	.	16.e/LL	.	.	.	.	.	.
.	.	32d/JK	.	32f#/JK	.	.	.	.	.	.
8AA/	.	8e/J	.	8g/J	.	.	.	.	.	.
8AA/	.	8r	.	8r	.	.	.	.	.	.
8AA/J	.	8c#/	.	8e/	.	.	.	.	.	.
=7	=7	=7	=7	=7	=7	=7	=7	=7	=7	=7
8D\L	.	32f#/KLL	.	32f#/KLL	.	.	.	.	1ryy	.
.	.	16.d/JJ	.	16.d/JJ	.	.	.	.	.	.
8D\	.	8dd\	.	8dd\	.	.	.	.	.	.
8D\	.	32f#/KLL	.	32f#/KLL	.	.	.	.	.	.
.	.	16.d/JJ	.	16.d/JJ	.	.	.	.	.	.
8D\J	.	8ccn\	.	8ccn\	.	.	.	.	.	.
!LO:LB:g=original	!	!	!	!	!	!	!	!	!	!
8G\L	.	32b\KLL	.	32b/KLL	.	.	.	.	.	.
.	.	16.g\JJ	.	16.g/JJ	.	.	.	.	.	.
8G\	.	8gg\	.	8gg\	.	.	.	.	.	.
8A\	.	32cc#X\KLL	.	32cc#X/KLL	.	.	.	.	.	.
.	.	16.a\JJ	.	16.a/JJ	.	.	.	.	.	.
8A\J	.	8aa\	.	8aa\	.	.	.	.	.	.
=8	=8	=8	=8	=8	=8	=8	=8	=8	=8	=8
!LO:TX:a:t=P:problem=mixed beam	!	!	!	!	!	!	!	!	!	!
8B\L	.	8.dd\L	.	8.dd\L	.	.	.	.	1ryy	.
8BB/	.	.	.	.	.	.	.	.	.	.
.	.	32cc#\LL	.	32cc#\LL	.	.	.	.	.	.
.	.	32b\JJJ	.	32b\JJJ	.	.	.	.	.	.
8C#/	.	8a/L	.	8a/L	.	.	.	.	.	.
8C#/J	.	8g/J	.	8g/J	.	.	.	.	.	.
!	!	!LO:TUP:a:problem=klamra łukowa	!	!	!	!	!	!	!	!
8D/L	.	24f#/LL	.	(24f#/LL	.	.	.	.	.	.
.	.	24g/	.	24g/	.	.	.	.	.	.
.	.	24a/JJ	.	24a/JJ)	.	.	.	.	.	.
!	!	!LO:TUP:a:problem=klamra łukowa	!	!	!	!	!	!	!	!
8GG/J	.	24b\LL	.	(24b\LL	.	.	.	.	.	.
.	.	24cc#\	.	24cc#\	.	.	.	.	.	.
.	.	24dd\JJ	.	24dd\JJ)	.	.	.	.	.	.
8r	.	8d/L	.	8f#/L	.	.	.	.	.	.
8AA/	.	8e/J	.	8g/J	.	.	.	.	.	.
!	!	!	!	!LO:LB:g=original	!	!	!	!	!	!
=9	=9	=9	=9	=9	=9	=9	=9	=9	=9	=9
!	!	!LO:TUP:a:problem=klamra łukowa	!	!	!	!	!	!	!	!
8D/L	.	24f#/LL	.	(24a/LL	.	1r	.	.	1ryy	.
.	.	24g/	.	24b/	.	.	.	.	.	.
.	.	24a/JJ	.	24cc#/JJ)	.	.	.	.	.	.
!	!	!LO:TUP:a:problem=klamra łukowa	!	!	!	!	!	!	!	!
8GG/J	.	24b\LL	.	(24dd\LL	.	.	.	.	.	.
.	.	24cc#\	.	24ee\	.	.	.	.	.	.
.	.	24dd\JJ	.	24ff#\JJ)	.	.	.	.	.	.
8r	.	8d/L	.	8d/L	.	.	.	.	.	.
8AA/	.	8e/J	.	8e/J	.	.	.	.	.	.
8D/L	.	24f#/LL	.	(24f#/LL	.	.	.	.	.	.
.	.	24g/	.	24g/	.	.	.	.	.	.
.	.	24a/JJ	.	24a/JJ)	.	.	.	.	.	.
8GG/	.	24b\LL	.	(24b\LL	.	.	.	.	.	.
.	.	24cc#\	.	24cc#\	.	.	.	.	.	.
.	.	24dd\JJ	.	24dd\JJ)	.	.	.	.	.	.
!	!	!LO:LB:g=original	!	!	!	!	!	!	!	!
8AA/	.	8d/L	.	8d/L	.	.	.	.	.	.
8AA/J	.	8e/J	.	8e/J	.	.	.	.	.	.
=10	=10	=10	=10	=10	=10	=10	=10	=10	=10	=10
8DD/	.	8d/L	.	8d/L	.	2r	.	.	1ryy	.
8r	.	8A/J	.	8A/J	.	.	.	.	.	.
!	!	!	!	!LO:SIC:o:s=:v:nadprogramowe krzyżyki nad i pod pięciolinią	!	!	!	!	!	!
4r	.	4f#/	.	4f#/	.	.	.	.	.	.
!LO:SIC:o:s=:v:nadprogramowe krzyżyki nad i pod pięciolinią	!	!LO:SIC:o:s=:v:nadprogramowe krzyżyki nad i pod pięciolinią	!	!	!	!	!	!	!	!
8D\L	.	8f#/L	.	8a/L	.	8a\	A-	Prin-	.	.
8D\	.	16.d/L	.	16.f#/L	.	16f#\	-mor	.	.	.
.	.	.	.	.	.	16g\	mi	.	.	.
.	.	32e/JJk	.	32g/JJk	.	.	.	.	.	.
!	!	!	!	!LO:TX:a:t=P:problem=mixed beam	!	!	!	!	!	!
8D\	.	8f#/L	.	8a/L	.	8a\	Je-	.	.	.
8D\J	.	8f#/J	.	8dd\J	.	8dd\	-su	.	.	.
=11	=11	=11	=11	=11	=11	=11	=11	=11	=11	=11
8AA/L	.	8f#/L	.	8dd\L	.	8dd\	cha-	.	1ryy	.
8AA/	.	8e/	.	8cc#\	.	8cc#\	-ra	-ceps	.	.
8AA/	.	8e/	.	8cc#\	.	8r	.	.	.	.
8AA/J	.	8f#/J	.	8aa\J	.	8b\	Cha-	pri-	.	.
8r	.	8r	.	8r	.	8.g\	-ra	.	.	.
8GG/L	.	8g/L	.	8b\L	.	.	.	.	.	.
.	.	.	.	.	.	16a\	o-	.	.	.
8GG/	.	8d/	.	8b\	.	8b\	-pta-	.	.	.
8GG/J	.	8g/J	.	8b\J	.	8b\	-ta	.	.	.
=12	=12	=12	=12	=12	=12	=12	=12	=12	=12	=12
8D\L	.	8g/L	.	8b\L	.	8b\	qui-	-ce-	1ryy	.
8D\	.	8f#/	.	8a\	.	8a\	-es	-pes	.	.
8D\	.	8f#/	.	8a\	.	8r	.	.	.	.
8D\J	.	8a/J	.	8ff#\J	.	8g\	Cha-	glo-	.	.
8r	.	8r	.	8r	.	8.e\	-ra	.	.	.
8AA/L	.	8e/L	.	8g/L	.	.	.	.	.	.
.	.	.	.	.	.	16f#\	o-	-ri-	.	.
8AA/	.	8e/	.	8g/	.	8g\	-pta-	-o-	.	.
8AA/J	.	8e/J	.	8g/J	.	8g\	-ta	-si-	.	.
=13	=13	=13	=13	=13	=13	=13	=13	=13	=13	=13
8D\L	.	8e/L	.	8g/L	.	8g\	qui-	-si-	1ryy	.
8D\	.	8d/	.	8f#/	.	8f#\	-es	-me	.	.
8D\	.	8d/	.	8f#/	.	8r	.	.	.	.
8D\J	.	8d/J	.	8f#/J	.	8d\	cha-	.	.	.
!	!	!	!	!	!	!LO:LB:g=original	!	!	!	!
8r	.	8r	.	8r	.	16a\LL	.	.	.	.
.	.	.	.	.	.	16a\JJ	.	.	.	.
8D\L	.	8f#/L	.	8a/L	.	32a\LLL	.	.	.	.
.	.	.	.	.	.	32a\	.	.	.	.
.	.	.	.	.	.	32b\	.	.	.	.
.	.	.	.	.	.	32cc#\JJJ	.	.	.	.
8D\	.	8f#/	.	8a/	.	16a\LL	-ra-	.	.	.
.	.	.	.	.	.	16d\JJ	.	.	.	.
8D\J	.	8f#/J	.	8a/J	.	32d\LLL	-Op-	.	.	.
.	.	.	.	.	.	32e\	.	.	.	.
.	.	.	.	.	.	32f#\	.	.	.	.
.	.	.	.	.	.	32g\JJJ	.	.	.	.
!LO:LB:g=original	!	!	!	!	!	!	!	!	!	!
=14	=14	=14	=14	=14	=14	=14	=14	=14	=14	=14
8r	.	8r	.	8r	.	16a\LL	-ta-	.	1ryy	.
.	.	.	.	.	.	16a\JJ	.	.	.	.
8D\L	.	8a/L	.	8ff#\L	.	32a\LLL	.	.	.	.
.	.	.	.	.	.	32b\	.	.	.	.
.	.	.	.	.	.	32cc#\	.	.	.	.
.	.	.	.	.	.	32dd\JJJ	.	.	.	.
8D\	.	8a/	.	8ff#\	.	16a\LL	.	.	.	.
.	.	.	.	.	.	16d\JJ	.	.	.	.
8D\J	.	8a/J	.	8ff#\J	.	32d\LLL	-ta	ri-	.	.
.	.	.	.	.	.	32e\	.	.	.	.
.	.	.	.	.	.	32f#\	.	.	.	.
.	.	.	.	.	.	32g\JJJ	.	-o-	.	.
!	!	!	!	!LO:LB:g=original	!	!	!	!	!	!
!	!	!	!	!LO:TX:a:t=P:problem=mixed beam	!	!	!	!	!	!
8C#/L	.	8a\L	.	8ee\L	.	16.a\LL	qui-	-si-	.	.
.	.	.	.	.	.	32g#X\JJk	.	-si-	.	.
8C#/	.	8a\	.	8ee\	.	8a\	-es	-me	.	.
8C#/	.	8a\	.	8ee\	.	8r	.	.	.	.
8C#/J	.	8ee\J	.	8e/J	.	8a\	op-	mi-	.	.
=15	=15	=15	=15	=15	=15	=15	=15	=15	=15	=15
!	!	!	!	!LO:TX:a:t=P:problem=mixed beam	!	!	!	!	!	!
8BB/L	.	8dd\L	.	8g#X\L	.	16.dd\LL	-ta-	-cha-	1ryy	.
.	.	.	.	.	.	32b\JJk	.	.	.	.
8AA/	.	8cc#\	.	8ee\	.	8cc#\	.	.	.	.
8D/	.	8b\	.	8dd\	.	32b\KLL	.	.	.	.
.	.	.	.	.	.	16.g#X\JJ	.	.	.	.
8D#X/J	.	8a\J	.	8cc#\J	.	8a\	.	.	.	.
!LO:TX:a:t=P:problem=mixed beam	!	!	!	!	!	!	!	!	!	!
8E\L	.	8g#X/L	.	8b\L	.	16g#X\LL	.	.	.	.
.	.	.	.	.	.	16f#\J	.	.	.	.
8E\	.	8g#/	.	8b\	.	8e\J	.	.	.	.
8GG#X/	.	8b/	.	8dd\	.	16e\	-ta	.	.	.
.	.	.	.	.	.	16b\	O-	.	.	.
8GG#/J	.	8b/J	.	8dd\J	.	24g#X\LL	-pta-	.	.	.
.	.	.	.	.	.	24f#\	.	.	.	.
.	.	.	.	.	.	24e\JJ	.	.	.	.
=16	=16	=16	=16	=16	=16	=16	=16	=16	=16	=16
.	.	.	.	.	.	8qqB/	.	.	.	.
8AA/L	.	8e/L	.	8dd\L	.	4c#\	-ta	-el	1ryy	.
8AA/	.	8e/	.	8cc#\J	.	.	.	.	.	.
!	!	!	!	!LO:TX:a:t=P:problem=mixed beam	!	!	!	!	!	!
8C#/	.	8A/	.	16ee\LL	.	16r	.	.	.	.
.	.	.	.	16e/	.	16e\LL	cha-	mi-	.	.
8C#/J	.	8A/J	.	16f#/	.	16f#\	.	.	.	.
.	.	.	.	16gn/JJ	.	16gn\JJ	-ra	.	.	.
!	!	!LO:TX:a:t=P:problem=mixed beam	!	!	!	!	!	!	!	!
!	!	!LO:LB:g=original	!	!	!	!LO:LB:g=original	!	!	!	!
8D\L	.	8A/L	.	8f#/L	.	8.f#\L	.	-cha-	.	.
8D\	.	8a\J	.	8a/	.	.	.	.	.	.
.	.	.	.	.	.	16a\Jk	.	.	.	.
.	.	.	.	.	.	8qqa/	.	.	.	.
8E\	.	8B/L	.	8g#X/	.	8.g#X\L	o-	.	.	.
8E\J	.	8g#X/J	.	8b/J	.	.	.	.	.	.
.	.	.	.	.	.	16b\Jk	.	.	.	.
=17	=17	=17	=17	=17	=17	=17	=17	=17	=17	=17
.	.	.	.	.	.	8qqb/	.	.	.	.
8F#\L	.	8f#/L	.	8a\L	.	8.a\L	-pta-	.	1ryy	.
8F#\	.	8a/	.	8ff#\	.	.	.	.	.	.
.	.	.	.	.	.	16cc#\Jk	.	.	.	.
.	.	.	.	.	.	8qqcc#/	.	.	.	.
8G#X\	.	8e/	.	8b\	.	8.b\L	-ta	.	.	.
8G#\J	.	8b/J	.	8dd\J	.	.	.	.	.	.
.	.	.	.	.	.	16dd\Jk	.	.	.	.
8A\L	.	8e/L	.	8cc#\L	.	8cc#\	qui-	.	.	.
8E\	.	8g#X/J	.	8b\J	.	8b\	-es	-el	.	.
8E\	.	8r	.	8r	.	8r	.	.	.	.
8E\J	.	8b/	.	8b/	.	8b\	Sus-	Ar-	.	.
=18	=18	=18	=18	=18	=18	=18	=18	=18	=18	=18
8A\L	.	24cc#\LL	.	24cc#\LL	.	8cc#\L	-pi-	-chan-	1ryy	.
.	.	24dd\	.	24dd\	.	.	.	.	.	.
.	.	24ee\JJ	.	24ee\JJ	.	.	.	.	.	.
8D\J	.	24ff#\LL	.	24ff#\LL	.	16dd\L	-ras	.	.	.
.	.	24gg#X\	.	24gg#X\	.	.	.	.	.	.
.	.	.	.	.	.	16b\JJ	.	.	.	.
.	.	24aa\JJ	.	24aa\JJ	.	.	.	.	.	.
8r	.	8a/L	.	8a\L	.	8.g#X\	me-	.	.	.
8E\	.	8b/J	.	8b\J	.	.	.	.	.	.
.	.	.	.	.	.	16g#\	-um	-ge-	.	.
8A\L	.	24cc#\LL	.	24cc#\LL	.	4a\	cor	-le	.	.
.	.	24dd\	.	(24dd\	.	.	.	.	.	.
.	.	24ee\JJ	.	24ee\JJ	.	.	.	.	.	.
8D\J	.	24ff#\LL	.	24ff#\LL	.	.	.	.	.	.
.	.	24gg#X\	.	24gg#X\)	.	.	.	.	.	.
.	.	24aa\JJ	.	24aa\JJ	.	.	.	.	.	.
8r	.	8a/L	.	8a\L	.	8r	.	.	.	.
8E\	.	8b/J	.	8b\J	.	8b\	Ve-	Ar-	.	.
=19	=19	=19	=19	=19	=19	=19	=19	=19	=19	=19
8A\L	.	24cc#\LL	.	24cc#\LL	.	8cc#\L	-ni	-chan-	1ryy	.
.	.	24dd\	.	(24dd\	.	.	.	.	.	.
.	.	24ee\JJ	.	24ee\JJ	.	.	.	.	.	.
8D\J	.	24ff#\LL	.	24ff#\LL	.	16dd\L	So-	.	.	.
.	.	24gg#X\	.	24gg#X\)	.	.	.	.	.	.
.	.	.	.	.	.	16b\JJ	.	.	.	.
.	.	24aa\JJ	.	24aa\JJ	.	.	.	.	.	.
4E\	.	8a;/L	.	8a/L	.	8a\	-la-	.	.	.
.	.	8g#X/J	.	8g#X;</J	.	4b\	-re	.	.	.
!	!	!	!	!LO:LB:g=original	!	!	!	!	!	!
8AA/L	.	8ee\L	.	8ee\L	.	.	.	.	.	.
8AA/	.	16.cc#\L	.	16.cc#\L	.	8a\	me-	-ge-	.	.
.	.	32dd\JJk	.	32dd\JJk	.	.	.	.	.	.
8AA/	.	8ee\L	.	8ee\L	.	4a\	-um	-le	.	.
8AA/J	.	8aa\J	.	8aa\J	.	.	.	.	.	.
!LO:LB:g=original	!	!	!	!	!	!	!	!	!	!
=20	=20	=20	=20	=20	=20	=20	=20	=20	=20	=20
8E\L	.	8aa\L	.	8aa\L	.	1r	.	.	1ryy	.
8E\J	.	8gg#X\J	.	8gg#X\J	.	.	.	.	.	.
8r	.	8.b\L	.	8.b\L	.	.	.	.	.	.
8G#X\	.	.	.	.	.	.	.	.	.	.
.	.	32cc#\LL	.	32cc#\LL	.	.	.	.	.	.
.	.	32dd\JJJ	.	32dd\JJJ	.	.	.	.	.	.
8A\L	.	24cc#\LL	.	24cc#\LL	.	.	.	.	.	.
.	.	24dd\	.	24dd\	.	.	.	.	.	.
.	.	24ee\JJ	.	24ee\JJ	.	.	.	.	.	.
8D\	.	24ff#\LL	.	24ff#\LL	.	.	.	.	.	.
.	.	24gg#X\	.	24gg#X\	.	.	.	.	.	.
.	.	24aa\JJ	.	24aa\JJ	.	.	.	.	.	.
8E\	.	8a/L	.	8a/L	.	.	.	.	.	.
8E\J	.	8b/J	.	8b/J	.	.	.	.	.	.
!	!	!LO:LB:g=original	!	!	!	!	!	!	!	!
=21	=21	=21	=21	=21	=21	=21	=21	=21	=21	=21
!LO:TX:a:t=P:problem=mixed beam	!	!	!	!	!	!	!	!	!	!
8AA/L	.	8a/	.	8a/	.	2r	.	.	1ryy	.
8A\J	.	4a/	.	4a/	.	.	.	.	.	.
16A'\LL	.	.	.	.	.	.	.	.	.	.
16G'\	.	.	.	.	.	.	.	.	.	.
16F#'\	.	32a/LLL	.	32a/LLL	.	.	.	.	.	.
.	.	32g/	.	32g/	.	.	.	.	.	.
16E'\JJ	.	32f#/	.	32f#/	.	.	.	.	.	.
.	.	32e/JJJ	.	32e/JJJ	.	.	.	.	.	.
8D\L	.	8d/L	.	8d/L	.	8a\	A-	es-	.	.
8D\	.	16d/L	.	16.f#/L	.	16f#\	-mor	-to	.	.
.	.	16e/JJ	.	.	.	16g\	mi	.	.	.
.	.	.	.	32g/JJk	.	.	.	.	.	.
8D\	.	8f#/L	.	8a/L	.	8a\	Je-	me-	.	.
8D\J	.	16g/L	.	16.b/L	.	8b\	-su	-mor	.	.
.	.	16a/JJ	.	.	.	.	.	.	.	.
.	.	.	.	32cc#/JJk	.	.	.	.	.	.
!	!	!	!	!	!	!LO:LB:g=original	!	!	!	!
=22	=22	=22	=22	=22	=22	=22	=22	=22	=22	=22
8D#X/L	.	8a/L	.	8cc#\L	.	8ccn\	Cha-	no-	1ryy	.
8D#/	.	8a/	.	8b\	.	4b\	-re	-stri	.	.
8D#/	.	8a/	.	8b\	.	.	.	.	.	.
8D#/J	.	8a/J	.	8b\J	.	8a\	o	hic	.	.
!LO:TX:a:t=P:problem=mixed beam	!	!	!	!	!	!	!	!	!	!
8E\L	.	8g/L	.	8b\L	.	8g\	cha-	et	.	.
8E\	.	8g/	.	8b\	.	16f#\	-ra	.	.	.
.	.	.	.	.	.	16e\	o-	.	.	.
8AA/	.	8a/	.	8ccn\	.	8ccn\	-pta-	et	.	.
8AA/J	.	8a/J	.	8cc\J	.	8e\	-ta	u-	.	.
=23	=23	=23	=23	=23	=23	=23	=23	=23	=23	=23
8BB/L	.	8g/L	.	8b\L	.	8e\	qui-	-bi	1ryy	.
8BB/	.	8g/	.	8b\	.	8d#X\	-es	que	.	.
8BB/	.	8a/	.	8dd#X\	.	8r	.	.	.	.
8BB/J	.	8a/J	.	8ff#\J	.	8a\	o-	et	.	.
!LO:TX:a:t=P:problem=mixed beam	!	!	!	!	!	!	!	!	!	!
*	*	*	*	*	*	*Xtuplet	*	*	*	*
8E\L	.	8g/L	.	8ee\L	.	24g\LL	-pta-	.	.	.
.	.	.	.	.	.	24f#\	.	.	.	.
.	.	.	.	.	.	24e\JJ	.	.	.	.
8E\	.	8b/	.	8ee\	.	8e\	.	.	.	.
8GG/	.	8b/	.	8ee\	.	8b\	.	.	.	.
8GG/J	.	8b/J	.	8ee\J	.	8d#\	-ta	u-	.	.
=24	=24	=24	=24	=24	=24	=24	=24	=24	=24	=24
8AA/L	.	8a/	.	8ddn\L	.	8d\	qui-	-bi	1ryy	.
8AA/	.	24a\LL	.	(24cc#X\L	.	8c#\	-es	que	.	.
.	.	24b\	.	24dd\	.	.	.	.	.	.
.	.	24cc#\JJ	.	24ee\JJ)	.	.	.	.	.	.
!	!	!LO:TX:a:t=P:problem=mixed beam	!	!LO:TX:a:t=P:problem=mixed beam	!	!	!	!	!	!
8AA/	.	8cc#\L	.	8ee\L	.	8r	.	.	.	.
8AA/J	.	8c#/J	.	8e/J	.	8e\	Cha-	se-	.	.
!	!	!	!	!LO:LB:g=original	!	!	!	!	!	!
8AA/L	.	16d/LL	.	16f#'/LL	.	16f#\LL	.	.	.	.
.	.	16f#'/	.	16a'/	.	16a'\	.	.	.	.
8AA/	.	16f#'/	.	16a'/	.	16a'\	.	.	.	.
.	.	16f#'/JJ	.	16a'/JJ	.	16a'\JJ	.	.	.	.
8AA/	.	16f#'/LL	.	16a'/LL	.	16a\	.	.	.	.
.	.	16f#'/	.	16a'/	.	8b\	.	.	.	.
8AA/J	.	16f#'/	.	16a'/	.	.	.	.	.	.
.	.	16f#'/JJ	.	16a'/JJ	.	16f#\	.	-per	.	.
=25	=25	=25	=25	=25	=25	=25	=25	=25	=25	=25
8AA/L	.	16.c#/LL	.	16.e/LL	.	16.e\LL	.	pre-	1ryy	.
.	.	32d/JJk	.	32f#/JJk	.	32f#\JJk	.	-ca-	.	.
!	!	!	!	!	!	!LO:LB:g=original	!	!	!	!
8AA/	.	4e/	.	4g/	.	4g\	-ra	-re	.	.
8AA/	.	.	.	.	.	.	.	.	.	.
8AA/J	.	8c#/	.	8e/	.	8e\	o-	se-	.	.
!LO:LB:g=original	!	!	!	!	!	!	!	!	!	!
8AA/L	.	16d/LL	.	16f#'/LL	.	16f#\LL	-pta-	.	.	.
.	.	16f#'/	.	16a'/	.	16a\	.	.	.	.
8AA/	.	16f#'/	.	16a'/	.	16a\	.	.	.	.
.	.	16f#'/JJ	.	16a'/JJ	.	16a\JJ	.	.	.	.
8AA/	.	16f#'/LL	.	16a'/LL	.	16g#X\	.	.	.	.
.	.	16f#'/	.	16a'/	.	8dd\	.	.	.	.
8AA/J	.	16f#'/	.	16a'/	.	.	.	.	.	.
.	.	16f#'/JJ	.	16a'/JJ	.	16f#\	-ta	-per	.	.
!	!	!LO:LB:g=original	!	!	!	!	!	!	!	!
=26	=26	=26	=26	=26	=26	=26	=26	=26	=26	=26
8AA/L	.	16.c#/LL	.	16.e/LL	.	16.e\LL	qui-	pre	1ryy	.
.	.	32d/JK	.	32f#/JK	.	32f#\JJk	.	ca-	.	.
8AA/	.	8e/J	.	8g/J	.	8g\	-es	-re	.	.
8AA/	.	8r	.	8r	.	8r	.	.	.	.
8AA/J	.	8c#/	.	8e/	.	8e\	O-	pro	.	.
!	!	!	!	!LO:TX:a:t=P:problem=mixed beam	!	!	!	!	!	!
8D\L	.	8d/L	.	8f#/L	.	8.f#\	-pta-	no-	.	.
8D\	.	8f#/	.	8dd\	.	.	.	.	.	.
.	.	.	.	.	.	16a\	.	.	.	.
8E\	.	8e/	.	8g/	.	8.g\L	.	.	.	.
8E\J	.	8g/J	.	8ee\J	.	.	.	.	.	.
.	.	.	.	.	.	16b\Jk	.	.	.	.
=27	=27	=27	=27	=27	=27	=27	=27	=27	=27	=27
8F#\L	.	8f#/L	.	8a\L	.	8.a\L	.	.	1ryy	.
8F#\	.	8a/	.	8ff#\	.	.	.	.	.	.
.	.	.	.	.	.	16ccn\Jk	.	.	.	.
.	.	.	.	.	.	8qqcc#X/	.	.	.	.
8G\	.	8g/	.	8b\	.	8.b\L	-ta	.	.	.
8G\J	.	8b/J	.	8gg\J	.	.	.	.	.	.
.	.	.	.	.	.	16dd\Jk	.	.	.	.
8A\L	.	16.a\LL	.	16.cc#X\LL	.	16.cc#\LL	qui-	.	.	.
.	.	32b\JJk	.	32dd\JJk	.	32b\JJk	.	.	.	.
8A\J	.	4cc#\	.	4ee\	.	8a\	-es	-bis	.	.
4C#/	.	.	.	.	.	8r	.	.	.	.
.	.	8e/	.	8g/	.	8g\	Su-	.	.	.
=28	=28	=28	=28	=28	=28	=28	=28	=28	=28	=28
8D/L	.	24f#/LL	.	(24f#/LL	.	24f#\LL	-spi-	.	1ryy	.
.	.	24g/	.	24g/	.	24g\	.	.	.	.
.	.	24a/JJ	.	24a/JJ)	.	24a\JJ	.	.	.	.
8GG/	.	24b\LL	.	(24b\LL	.	24b\LL	-rat	.	.	.
.	.	24cc#\	.	24cc#\	.	24cc#\JJ	.	.	.	.
.	.	24dd\JJ	.	24dd\JJ)	.	24dd\	.	.	.	.
8AA/	.	8d/L	.	8d/L	.	8d\	me-	.	.	.
8AA/J	.	8c#/J	.	8e/J	.	8e\	-um	.	.	.
!	!	!LO:TX:a:t=P:problem=mixed beam	!	!LO:TX:a:t=P:problem=mixed beam	!	!	!	!	!	!
8D\L	.	8d/L	.	8d/L	.	8d\	cor	.	.	.
8D\	.	8dd\	.	8ff#\	.	8dd\	A-	.	.	.
!	!	!	!	!	!	!LO:LB:g=original	!	!	!	!
8A\J	.	8cc#\J	.	8ee\J	.	16cc#\	-mor	.	.	.
.	.	.	.	.	.	16e\	mi	.	.	.
8r	.	8r	.	8r	.	16f#\	Je-	.	.	.
.	.	.	.	.	.	16g\	-su	.	.	.
=29	=29	=29	=29	=29	=29	=29	=29	=29	=29	=29
!	!	!LO:TX:a:t=P:problem=mixed beam	!	!LO:TX:a:t=P:problem=mixed beam	!	!	!	!	!	!
8D\L	.	8f#/L	.	8f#/L	.	16f#\LL	cha-	.	1ryy	.
.	.	.	.	.	.	16e\JJ	.	.	.	.
8D\	.	8dd\	.	8ff#\	.	8d\	-ra	.	.	.
8A\J	.	8cc#\J	.	8ee\J	.	16b\	Ve-	.	.	.
.	.	.	.	.	.	16cc#\	-ni	.	.	.
8r	.	8r	.	8r	.	24e\	o-	.	.	.
.	.	.	.	.	.	24f#\	-pta-	.	.	.
.	.	.	.	.	.	24g\	-ta	.	.	.
!	!	!	!	!LO:LB:g=original	!	!	!	!	!	!
8D\L	.	8A/L	.	8d/L	.	16.f#\LL	qui-	.	.	.
.	.	.	.	.	.	32e\JJk	.	.	.	.
8D\	.	16.f#/L	.	16.a/L	.	8d\	-es	.	.	.
.	.	32d/JJk	.	32f#/JJk	.	.	.	.	.	.
8D\	.	32a/KLL	.	32dd\KLL	.	8r	.	.	.	.
.	.	16.f#/JJ	.	16.a\JJ	.	.	.	.	.	.
8D\J	.	32dd\KLL	.	32ff#\KLL	.	8a\	o	pro	.	.
.	.	16.a\JJ	.	16.dd\JJ	.	.	.	.	.	.
=30	=30	=30	=30	=30	=30	=30	=30	=30	=30	=30
!LO:TX:a:t=P:problem=mixed beam	!	!	!	!	!	!	!	!	!	!
8D\L	.	8b/	.	8gg\	.	8b\	Je-	no-	1ryy	.
8DD/	.	4a/	.	4ff#\	.	8a\	-su	-bis	.	.
8FF#/	.	.	.	.	.	8r	.	.	.	.
8AA/J	.	8e/	.	8cc#\	.	16a\	Ve-	.	.	.
.	.	.	.	.	.	16e\	-ni	.	.	.
8AA/L	.	8f#/L	.	8dd\L	.	8f#\	cha-	.	.	.
8AA/	.	8e/J	.	8cc#\J	.	8e\	-re	.	.	.
8AA/J	.	8A/	.	8A/	.	16r	.	.	.	.
.	.	.	.	.	.	16e\	Ve-	fi-	.	.
8r	.	8r	.	8r	.	16f#\	-ni	-li-	.	.
.	.	.	.	.	.	16g\	op-	-um	.	.
!	!	!	!	!	!	!LO:LB:g=original	!	!	!	!
=31	=31	=31	=31	=31	=31	=31	=31	=31	=31	=31
!	!LO:DY:a:t=po&colon;	!	!	!	!	!	!	!	!	!
8D\L	p	8f#/L	.	8a\L	.	8.f#\L	-ta-	De-	1ryy	.
8D\	.	8f#/	.	8b\	.	.	.	.	.	.
.	.	.	.	.	.	16b\Jk	.	.	.	.
.	.	.	.	.	.	8qqa/	.	.	.	.
8E\	.	8g/	.	8b\	.	8.g\L	.	.	.	.
8E\J	.	8g/J	.	8ccn\J	.	.	.	.	.	.
.	.	.	.	.	.	16cc#\Jk	.	.	.	.
.	.	.	.	.	.	8qqb/	.	.	.	.
!LO:LB:g=original	!	!LO:LB:g=original	!	!	!	!	!	!	!	!
8F#\L	.	8a\L	.	8cc#X\L	.	8.a\L	.	.	.	.
8F#\	.	8a\	.	8dd\	.	.	.	.	.	.
.	.	.	.	.	.	16dd\Jk	.	.	.	.
8G\	.	8b\	.	8dd\	.	8.b\L	-ta	.	.	.
8G\J	.	8b\J	.	8ee\J	.	.	.	.	.	.
.	.	.	.	.	.	16ee\Jk	.	.	.	.
=32	=32	=32	=32	=32	=32	=32	=32	=32	=32	=32
8A\L	.	8cc#\L	.	8ee\L	.	16.cc#\LL	qui-	.	1ryy	.
.	.	.	.	.	.	32b\JJk	.	.	.	.
8A\J	.	8cc#\J	.	8dd\J	.	8a\	-es	-i	.	.
8r	.	8r	.	8r	.	8r	.	.	.	.
8C#/	.	8e/	.	8g/	.	8g\	Sus-	pro	.	.
8D/L	.	24f#/LL	.	24f#/LL	.	24f#\LL	-pi-	no-	.	.
.	.	24g/	.	24g/	.	24g\	.	.	.	.
.	.	24a/JJ	.	24a/JJ	.	24a\JJ	.	.	.	.
8GG/J	.	24b\LL	.	24b\LL	.	24b\LL	-rat	.	.	.
.	.	24cc#\	.	24cc#\	.	24cc#\	.	.	.	.
.	.	24dd\JJ	.	24dd\JJ	.	24dd\JJ	.	.	.	.
8r	.	8d/L	.	8d/L	.	8d\	me-	.	.	.
8AA/	.	8e/J	.	8e/J	.	8e\	-um	.	.	.
=33	=33	=33	=33	=33	=33	=33	=33	=33	=33	=33
8D/L	.	24f#/LL	.	24f#/LL	.	4d\	Cor	-bis	1ryy	.
.	.	24g/	.	24g/	.	.	.	.	.	.
.	.	24a/JJ	.	24a/JJ	.	.	.	.	.	.
8GG/J	.	24b\LL	.	24b\LL	.	.	.	.	.	.
.	.	24cc#\	.	24cc#\	.	.	.	.	.	.
.	.	24dd\JJ	.	24dd\JJ	.	.	.	.	.	.
8r	.	8d/L	.	8d/L	.	8r	.	.	.	.
8AA/	.	8e/J	.	8e/J	.	8e\	Su-	fi-	.	.
8D/L	.	24f#/LL	.	24f#/LL	.	24f#\LL	-spi-	-li-	.	.
.	.	24g/	.	24g/	.	24g\	.	.	.	.
.	.	24a/JJ	.	24a/JJ	.	24a\JJ	.	.	.	.
8GG/J	.	24b\LL	.	24b\LL	.	24b\LL	-rat	-um	.	.
.	.	24cc#\	.	24cc#\	.	24cc#\	.	.	.	.
.	.	24dd\JJ	.	24dd\JJ	.	24dd\JJ	.	.	.	.
4AA/	.	8d/L	.	8d/L	.	8d\	me-	De-	.	.
.	.	8e/J	.	8c#/J	.	8e\	-um	.	.	.
=34	=34	=34	=34	=34	=34	=34	=34	=34	=34	=34
8D\L	.	8aa\L	.	8.aa\L	.	4d\	Cor	-i	1ryy	.
8D\	.	16.ff#\L	.	.	.	.	.	.	.	.
.	.	.	.	32ff#\LL	.	.	.	.	.	.
.	.	32gg\JJk	.	32gg\JJJ	.	.	.	.	.	.
8F#\	.	8aa\L	.	8aa\L	.	4r	.	.	.	.
8F#\J	.	8ccn\J	.	8ccn\J	.	.	.	.	.	.
!	!	!	!	!LO:LB:g=original	!	!	!	!	!	!
.	.	.	.	8qqcc#X/	.	.	.	.	.	.
8G\L	.	8.b\L	.	8.b\L	.	2r	.	.	.	.
8G\	.	.	.	.	.	.	.	.	.	.
.	.	16gg\Jk	.	16gg\K	.	.	.	.	.	.
8G#X\	.	8.ee\L	.	8.ee\	.	.	.	.	.	.
8G#\J	.	.	.	.	.	.	.	.	.	.
.	.	16dd\Jk	.	16dd\Jk	.	.	.	.	.	.
=35	=35	=35	=35	=35	=35	=35	=35	=35	=35	=35
!LO:TX:a:t=P:problem=mixed beam	!	!	!	!	!	!	!	!	!	!
8A\L	.	8dd\L	.	8dd\L	.	0r	.	.	1ryy	.
8A\	.	8cc#\J	.	8cc#\J	.	.	.	.	.	.
8AA/	.	8r	.	8r	.	.	.	.	.	.
8AA/J	.	8e/	.	8e/	.	.	.	.	.	.
8AA/L	.	16d/LL	.	16f#/LL	.	.	.	.	.	.
.	.	16f#'/	.	16a'/	.	.	.	.	.	.
8AA/	.	16f#'/	.	16a'/	.	.	.	.	.	.
.	.	16f#'/JJ	.	16a'/JJ	.	.	.	.	.	.
8AA/	.	32f#/LLL	.	32a'\LLL	.	.	.	.	.	.
.	.	32b/	.	32dd'\	.	.	.	.	.	.
.	.	32b/	.	32dd'\	.	.	.	.	.	.
.	.	32a/JJJ	.	32cc#'\JJJ	.	.	.	.	.	.
8AA/J	.	32g/LLL	.	32b'/LLL	.	.	.	.	.	.
.	.	32f#/	.	32a'/	.	.	.	.	.	.
.	.	32e/	.	32g'/	.	.	.	.	.	.
.	.	32d/JJJ	.	32f#'/JJJ	.	.	.	.	.	.
!	!	!LO:LB:g=original	!	!	!	!	!	!	!	!
=36	=36	=36	=36	=36	=36	=36	=36	=36	=36	=36
.	.	8qqd/	.	.	.	.	.	.	.	.
8AA/L	.	16.c#/LL	.	16.e/LL	.	.	.	.	1ryy	.
.	.	32d/JK	.	32f#/JK	.	.	.	.	.	.
8AA/	.	8e/J	.	8g/J	.	.	.	.	.	.
8AA/	.	8r	.	8r	.	.	.	.	.	.
8AA/J	.	8e/	.	8e/	.	.	.	.	.	.
8D\L	.	32f#/KLL	.	32f#/KLL	.	.	.	.	.	.
.	.	16.d/JJ	.	16.d/JJ	.	.	.	.	.	.
8F#\	.	8dd\	.	8dd\	.	.	.	.	.	.
8G\	.	32b/KLL	.	32b/KLL	.	.	.	.	.	.
.	.	16.g/JJ	.	16.g/JJ	.	.	.	.	.	.
8E\J	.	8gg\	.	8gg\	.	.	.	.	.	.
=37	=37	=37	=37	=37	=37	=37	=37	=37	=37	=37
8A\L	.	8.cc#\L	.	8.cc#\L	.	1r;>;<	.	.	1ryy	.
8G\	.	.	.	.	.	.	.	.	.	.
.	.	32b\LL	.	32b\LL	.	.	.	.	.	.
.	.	32a\JJJ	.	32a\JJJ	.	.	.	.	.	.
8F#\	.	8ee\L	.	8dd\L	.	.	.	.	.	.
8E\J	.	8g\J	.	8g\J	.	.	.	.	.	.
!LO:TX:a:t=P:problem=mixed beam	!	!	!	!	!	!	!	!	!	!
8D\L	.	24f#/LL	.	24f#/LL	.	.	.	.	.	.
.	.	24g/	.	24g/	.	.	.	.	.	.
.	.	24a/JJ	.	24a/JJ	.	.	.	.	.	.
8GG/	.	24b/LL	.	24b\LL	.	.	.	.	.	.
.	.	24cc#/	.	24cc#\	.	.	.	.	.	.
.	.	24dd/JJ	.	24dd\JJ	.	.	.	.	.	.
8AA/	.	8d/L	.	8d/L	.	.	.	.	.	.
8AA/J	.	8e/J	.	8e/J	.	.	.	.	.	.
!LO:LB:g=original	!	!	!	!	!	!	!	!	!	!
=38	=38	=38	=38	=38	=38	=38	=38	=38	=38	=38
4DD;/	.	8d/L	.	8d/L	.	2r	.	.	2ryy	.
.	.	8A/J	.	8A/J	.	.	.	.	.	.
4r	.	4f#;/	.	4f#;/	.	.	.	.	.	.
!	!	!	!	!LO:LB:g=original	!	!LO:LB:g=original	!	!	!	!
=39	=39	=39	=39	=39	=39	=39	=39	=39	=39	=39
*k[cnfnb-]	*	*k[b-]	*	*k[b-]	*	*k[b-]	*	*	*	*
*M3/8	*	*M3/8	*	*M3/8	*	*M3/8	*	*	*	*
4D\	.	8a/L	.	8a/L	.	8a\	A-	.	4.ryy	.
.	.	8f/	.	8f/	.	8f\	-man-	.	.	.
8r	.	8e/J	.	8e/J	.	8e\	-tum	.	.	.
=40	=40	=40	=40	=40	=40	=40	=40	=40	=40	=40
8D\L	.	8d/L	.	8d/L	.	(8d\	con-	.	4.ryy	.
8F\	.	8a/	.	8a/	.	8a\)	.	.	.	.
8D\J	.	8dd/J	.	8dd/J	.	8dd\	-so-	.	.	.
=41	=41	=41	=41	=41	=41	=41	=41	=41	=41	=41
8A\L	.	16.cc#X\LL	.	16.cc#X\LL	.	16cc#X\LL	-la-	.	4.ryy	.
.	.	.	.	.	.	16b-\JJ	.	.	.	.
.	.	32bn\JK	.	32bn\JK	.	.	.	.	.	.
8A\	.	8a\J	.	8a\J	.	8a\	-re	.	.	.
8A\J	.	8r	.	8r	.	8r	.	.	.	.
=42	=42	=42	=42	=42	=42	=42	=42	=42	=42	=42
8r	.	4.b-X\	.	4.b-X\	.	4.b-X\	qui	.	4.ryy	.
!LO:TX:a:t=P:problem=mixed beam	!	!	!	!	!	!	!	!	!	!
8G\L	.	.	.	.	.	.	.	.	.	.
8GG/J	.	.	.	.	.	.	.	.	.	.
=43	=43	=43	=43	=43	=43	=43	=43	=43	=43	=43
!LO:TX:a:t=P:problem=mixed beam	!	!	!	!	!	!	!	!	!	!
8GG/L	.	4c#X/	.	4c#X/	.	4c#X\	do-	.	4.ryy	.
8G\	.	.	.	.	.	.	.	.	.	.
8F\J	.	8d/	.	8d/	.	8d\	-lum	.	.	.
!	!	!LO:LB:g=original	!	!	!	!	!	!	!	!
=44	=44	=44	=44	=44	=44	=44	=44	=44	=44	=44
!LO:TX:a:t=P:problem=mixed beam	!	!	!	!	!	!	!	!	!	!
8E\L	.	8g/	.	8g/	.	8g\	te	.	4.ryy	.
.	.	8qqf/	.	.	.	8qqf/	.	.	.	.
8A\	.	4e/	.	4e/	.	4e\	Su-	.	.	.
8AA/J	.	.	.	.	.	.	.	.	.	.
=45	=45	=45	=45	=45	=45	=45	=45	=45	=45	=45
8D\L	.	16f/LL	.	16f/LL	.	16f\LL	-spi-	.	4.ryy	.
.	.	16e/J	.	16e/J	.	16e\J	.	.	.	.
8F\	.	8d/J	.	8d/J	.	8d\J	-rat	.	.	.
8D\J	.	8r	.	8r	.	8r	.	.	.	.
=46	=46	=46	=46	=46	=46	=46	=46	=46	=46	=46
8r	.	4.b-X\	.	4.b-\	.	4.b-X\	qui	.	4.ryy	.
!LO:TX:a:t=P:problem=mixed beam	!	!	!	!	!	!	!	!	!	!
8G\L	.	.	.	.	.	.	.	.	.	.
8GG/J	.	.	.	.	.	.	.	.	.	.
=47	=47	=47	=47	=47	=47	=47	=47	=47	=47	=47
!LO:TX:a:t=P:problem=mixed beam	!	!	!	!	!	!	!	!	!	!
8GG/L	.	4c#X/	.	4c#X/	.	4c#X\	do-	.	4.ryy	.
8G\	.	.	.	.	.	.	.	.	.	.
8F\J	.	8d/	.	8d/	.	8d\	-lum	.	.	.
=48	=48	=48	=48	=48	=48	=48	=48	=48	=48	=48
!LO:TX:a:t=P:problem=mixed beam	!	!	!	!	!	!	!	!	!	!
8E\L	.	8g/	.	8g/	.	8g\	te	.	4.ryy	.
.	.	.	.	8qqf/	.	8qqf/	.	.	.	.
8A\	.	4e/	.	4e/	.	4e\	Sus-	.	.	.
8AA/J	.	.	.	.	.	.	.	.	.	.
=49	=49	=49	=49	=49	=49	=49	=49	=49	=49	=49
8D\L	.	16f/LL	.	16f/LL	.	16f\LL	-pi-	.	4.ryy	.
.	.	16e/J	.	16e/J	.	16e\JJ	.	.	.	.
8F\	.	8d/J	.	8d/J	.	8d\	-rat	.	.	.
8E\J	.	8r	.	8r	.	8r	.	.	.	.
!	!	!	!	!	!	!LO:LB:g=original	!	!	!	!
=50	=50	=50	=50	=50	=50	=50	=50	=50	=50	=50
4.D\	.	8d/L	.	8f/L	.	8f\	A-	.	4.ryy	.
.	.	8f/	.	8b-/	.	8b-X\	-man-	.	.	.
.	.	8b-/J	.	8dd/J	.	8dd\	-tem	.	.	.
=51	=51	=51	=51	=51	=51	=51	=51	=51	=51	=51
4.E\	.	8b-/L	.	8dd\L	.	8dd\L	Con-	.	4.ryy	.
.	.	8a/	.	8cc\	.	8cc\J	.	.	.	.
.	.	8g/J	.	8b-\J	.	8b-\	so-	.	.	.
!LO:LB:g=original	!	!	!	!	!	!	!	!	!	!
=52	=52	=52	=52	=52	=52	=52	=52	=52	=52	=52
8F\L	.	8f/L	.	8a/L	.	8a\	-la-	.	4.ryy	.
8C#X\	.	8e/	.	8g/J	.	8g\	-re	.	.	.
8BBn\J	.	8f/J	.	8r	.	8r	.	.	.	.
!	!	!	!	!LO:LB:g=original	!	!	!	!	!	!
=53	=53	=53	=53	=53	=53	=53	=53	=53	=53	=53
8AA/L	.	4cc\	.	4cc\	.	8r	.	.	4.ryy	.
8GG/	.	.	.	.	.	8r	.	.	.	.
8FF/J	.	8c/	.	8c/	.	8c\	qui	.	.	.
=54	=54	=54	=54	=54	=54	=54	=54	=54	=54	=54
4BB-/	.	(24d/LL	.	24d/LL	.	24d\LL	do-	.	4.ryy	.
.	.	24e/	.	24e/	.	24e\	.	.	.	.
.	.	24f/JJ)	.	24f/JJ	.	24f\JJ	.	.	.	.
.	.	8qqf/	.	8qqf/	.	8qqf/	.	.	.	.
.	.	4e/	.	4e/	.	4e\	-lum	.	.	.
8C/	.	.	.	.	.	.	.	.	.	.
=55	=55	=55	=55	=55	=55	=55	=55	=55	=55	=55
4D\	.	(24f/LL	.	24f/LL	.	24f\LL	te	.	4.ryy	.
.	.	24g/	.	24g/	.	24g\	.	.	.	.
.	.	24a/JJ)	.	24a/JJ	.	24a\JJ	.	.	.	.
.	.	.	.	8qqa/	.	8qqa/	.	.	.	.
.	.	4g/	.	4g/	.	4g\	Su-	.	.	.
8E\	.	.	.	.	.	.	.	.	.	.
=56	=56	=56	=56	=56	=56	=56	=56	=56	=56	=56
8F\L	.	8a\L	.	8a\L	.	8a\L	-spi-	.	4.ryy	.
8G\	.	8b-\	.	8b-\	.	8b-\	.	.	.	.
8A\J	.	8cc\J	.	8cc\J	.	8cc\J	.	.	.	.
=57	=57	=57	=57	=57	=57	=57	=57	=57	=57	=57
!	!	!LO:TX:a:t=P:problem=mixed beam	!	!LO:TX:a:t=P:problem=mixed beam	!	!	!	!	!	!
4B-\	.	8dd\L	.	8dd\L	.	8dd\L	.	.	4.ryy	.
.	.	8e/	.	8e/	.	8e\J	.	.	.	.
8A\	.	8f/J	.	8f/J	.	8f\	-rat	.	.	.
=58	=58	=58	=58	=58	=58	=58	=58	=58	=58	=58
!LO:TX:a:t=P:problem=mixed beam	!	!	!	!	!	!	!	!	!	!
8B-\L	.	8g/	.	8b-\	.	24b-\LL	Su-	.	4.ryy	.
.	.	.	.	.	.	24a\	.	.	.	.
.	.	.	.	.	.	24g\JJ	.	.	.	.
.	.	8qqf/	.	.	.	.	.	.	.	.
8c\	.	4e/	.	4g/	.	4g\	-spi	.	.	.
8C/J	.	.	.	.	.	.	.	.	.	.
=59	=59	=59	=59	=59	=59	=59	=59	=59	=59	=59
8F\L	.	8f/	.	8f/	.	4f\	ras	.	4.ryy	.
8A\	.	4ff\	.	4ff\	.	.	.	.	.	.
8F\J	.	.	.	.	.	8r	.	.	.	.
=60	=60	=60	=60	=60	=60	=60	=60	=60	=60	=60
4C#X/	.	8ee\	.	8ee\	.	16g\LL	do-	.	4.ryy	.
.	.	.	.	.	.	16e\JJ	.	.	.	.
.	.	8r	.	8r	.	4c\	-lum	.	.	.
8r	.	8r	.	8r	.	.	.	.	.	.
!	!	!	!	!	!	!LO:LB:g=original	!	!	!	!
=61	=61	=61	=61	=61	=61	=61	=61	=61	=61	=61
4.r	.	8e/L	.	(8g/L	.	8g\L	do-	.	4.ryy	.
.	.	8f/	.	8a/	.	8a\J	.	.	.	.
.	.	8g/J	.	8b-/J)	.	8b-\	-lum	.	.	.
=62	=62	=62	=62	=62	=62	=62	=62	=62	=62	=62
4C#X/	.	8g/L	.	8b-/L	.	8b-\L	te	.	4.ryy	.
.	.	8f/	.	8a/	.	8a\J	.	.	.	.
8r	.	8e/J	.	8g/J	.	8g\	sus-	.	.	.
=63	=63	=63	=63	=63	=63	=63	=63	=63	=63	=63
8F\L	.	8f/L	.	16a/LL	.	16a\LL	-pi-	.	4.ryy	.
.	.	.	.	16g/J	.	16g\JJ	.	.	.	.
8A\	.	8c/	.	8f/J	.	8f\	-rat	.	.	.
8G\J	.	8B-/J	.	8r	.	8r	.	.	.	.
=64	=64	=64	=64	=64	=64	=64	=64	=64	=64	=64
4F\	.	8A/L	.	8a\L	.	8a\	ah	.	4.ryy	.
.	.	8a/	.	8dd\	.	8dd\	Ve-	.	.	.
8E\	.	8g/J	.	8cc\J	.	8cc\	-ni	.	.	.
=65	=65	=65	=65	=65	=65	=65	=65	=65	=65	=65
4D\	.	4f/	.	8b-/	.	8b-\	U-	.	4.ryy	.
.	.	.	.	4a/	.	4a\	-bi	.	.	.
8C/	.	8e/	.	.	.	.	.	.	.	.
!	!	!	!	!LO:LB:g=original	!	!	!	!	!	!
=66	=66	=66	=66	=66	=66	=66	=66	=66	=66	=66
8BBn/L	.	8d/L	.	4g#X/	.	4g#X\	es	.	4.ryy	.
8BB/	.	8d/	.	.	.	.	.	.	.	.
8AA/J	.	8c/J	.	8a/	.	8a\	A-	.	.	.
!LO:LB:g=original	!	!	!	!	!	!	!	!	!	!
=67	=67	=67	=67	=67	=67	=67	=67	=67	=67	=67
4.GG#X/	.	4Bn/	.	8bn\L	.	8b#X\L	-man-	.	4.ryy	.
.	.	.	.	8cc\	.	8cc\J	.	.	.	.
.	.	8bn/	.	8dd\J	.	8dd\	-tem	.	.	.
=68	=68	=68	=68	=68	=68	=68	=68	=68	=68	=68
!LO:TX:a:t=P:problem=mixed beam	!	!	!	!	!	!	!	!	!	!
8AA/L	.	8e/	.	8cc\	.	16cc\LL	do-	.	4.ryy	.
.	.	.	.	.	.	16a\JJ	.	.	.	.
.	.	.	.	.	.	8qqa/	.	.	.	.
8E\	.	4g#X/	.	4bn\	.	4g#X\	-la-	.	.	.
8EE/J	.	.	.	.	.	.	.	.	.	.
=69	=69	=69	=69	=69	=69	=69	=69	=69	=69	=69
4.F\	.	4a/	.	4a/	.	4a\	-re	.	4.ryy	.
.	.	8r	.	8r	.	8r	.	.	.	.
=70	=70	=70	=70	=70	=70	=70	=70	=70	=70	=70
4.D\	.	4.a/	.	4.ff\	.	4.f\	qui	.	4.ryy	.
=71	=71	=71	=71	=71	=71	=71	=71	=71	=71	=71
8C#X/L	.	8a/L	.	4.ee\	.	8e\L	do-	.	4.ryy	.
8BBn/	.	8bn/	.	.	.	8g#X\J	.	.	.	.
8AA/J	.	8cc/J	.	.	.	8a\	-lum	.	.	.
!	!	!	!	!	!	!LO:LB:g=original	!	!	!	!
=72	=72	=72	=72	=72	=72	=72	=72	=72	=72	=72
8D\	.	8b-\	.	8dd\	.	16dd\LL	Su-	.	4.ryy	.
.	.	.	.	.	.	16b-\JJ	.	.	.	.
4E\	.	4g#X/	.	4bn\	.	4b-\	-spi-	.	.	.
=73	=73	=73	=73	=73	=73	=73	=73	=73	=73	=73
4AA/	.	4a;/	.	4a/	.	4.a\	-rant.	.	4.ryy	.
8r	.	8r	.	8r	.	.	.	.	.	.
!	!	!LO:LB:g=original	!	!	!	!	!	!	!	!
=74||	=74||	=74||	=74||	=74||	=74||	=74||	=74||	=74||	=74||	=74||
*k[f#c#]	*	*k[f#c#]	*	*k[f#c#]	*	*	*	*	*	*
*M4/4	*	*M4/4	*	*M4/4	*	*M4/4	*	*	*	*
*met(c)	*	*met(c)	*	*met(c)	*	*met(c)	*	*	*	*
8AA/	.	8e/	.	8e/	.	8r	.	.	8ryy	.
=75	=75	=75	=75	=75	=75	=75	=75	=75	=75	=75
8D\L	.	32f#/KLL	.	32f#/KLL	.	0r	.	.	1ryy	.
.	.	16.d/JJ	.	16.d/JJ	.	.	.	.	.	.
8D\	.	8dd\	.	8dd\	.	.	.	.	.	.
8D\	.	32f#/KLL	.	32f#/KLL	.	.	.	.	.	.
.	.	16.d/JJ	.	16.d/JJ	.	.	.	.	.	.
8D\J	.	8ccn\	.	8ccn\	.	.	.	.	.	.
8G\L	.	32b\KLL	.	32b-X/KLL	.	.	.	.	.	.
.	.	16.g\JJ	.	16.g/JJ	.	.	.	.	.	.
8G\	.	8gg\	.	8gg\	.	.	.	.	.	.
8A\	.	32ee\KLL	.	32ee\KLL	.	.	.	.	.	.
.	.	16.cc\JJ	.	16.cc\JJ	.	.	.	.	.	.
8A\J	.	8aa\	.	8aa\	.	.	.	.	.	.
!	!	!	!	!LO:LB:g=original	!	!	!	!	!	!
=76	=76	=76	=76	=76	=76	=76	=76	=76	=76	=76
!LO:TX:a:t=P:problem=mixed beam	!	!	!	!	!	!	!	!	!	!
8B\L	.	8.dd\L	.	8.dd\L	.	.	.	.	1ryy	.
8BB/	.	.	.	.	.	.	.	.	.	.
.	.	32cc#\LL	.	32cc#\LL	.	.	.	.	.	.
.	.	32b\JJJ	.	32b\JJJ	.	.	.	.	.	.
8C#/	.	8a/L	.	8a/L	.	.	.	.	.	.
8C#/J	.	8g/J	.	8g/J	.	.	.	.	.	.
!	!	!LO:TUP:a:problem=klamra łukowa	!	!	!	!	!	!	!	!
8D/L	.	24f#/LL	.	(24f#/LL	.	.	.	.	.	.
.	.	24g/	.	24g/	.	.	.	.	.	.
.	.	24a/JJ	.	24a/JJ)	.	.	.	.	.	.
!	!	!LO:TUP:a:problem=klamra łukowa	!	!	!	!	!	!	!	!
8GG/	.	24b\LL	.	(24b\LL	.	.	.	.	.	.
.	.	24cc#\	.	24cc#\	.	.	.	.	.	.
.	.	24dd\JJ	.	24dd\JJ)	.	.	.	.	.	.
8AA/	.	8d/L	.	8d/L	.	.	.	.	.	.
8AA/J	.	8e/J	.	8e/J	.	.	.	.	.	.
=77	=77	=77	=77	=77	=77	=77||	=77||	=77||	=77	=77
!	!	!	!	!	!	!LO:TX:a:t=Da Capo	!	!	!	!
4DD/	.	8d/L	.	8d/L	.	2ryy	.	.	2ryy	.
.	.	8A/J	.	8A/J	.	.	.	.	.	.
!	!	!LO:TX:a:t=Da Capo	!	!LO:TX:a:t=Da Capo	!	!	!	!	!	!
4r	.	4f#/	.	4f#/	.	.	.	.	.	.
!LO:TX:b:t=Da Capo	!	!	!	!	!	!	!	!	!	!
!LO:PB:g=original	!	!LO:PB:g=original	!	!LO:PB:g=original	!	!	!	!	!	!
=78	=78	=78	=78	=78	=78	=78	=78	=78	=78	=78
*k[f#c#g#]	*	*k[f#c#g#]	*	*k[f#c#g#]	*	*	*	*	*	*
*M2/4	*	*M2/4	*	*M2/4	*	*	*	*	*k[f#c#g#]	*
!	!	!LO:TX:b:t=Virgo Gaude.	!	!LO:TX:a:t=Aria	!	!	!	!LO:N:vis=00	!	!
(8AA'/L	.	4e/|	.	4a/|	.	2ryy	.	.	0r	.
8AA'/	.	.	.	.	.	.	.	.	.	.
8AA'/	.	4g#/|	.	4b/|	.	.	.	.	.	.
8AA'/J)	.	.	.	.	.	.	.	.	.	.
=79	=79	=79	=79	=79	=79	=79	=79	=79	=79	=79
(8AA'/L	.	(16a/LL	.	(16cc#\LL	.	2ryy	.	.	.	.
.	.	16b/JJ)	.	16dd\JJ)	.	.	.	.	.	.
8AA'/	.	4cc#\	.	4ee\	.	.	.	.	.	.
8AA'/	.	.	.	.	.	.	.	.	.	.
8AA'/J)	.	8e/	.	8e/	.	.	.	.	.	.
=80	=80	=80	=80	=80	=80	=80	=80	=80	=80	=80
(8AA'/L	.	4e/	.	4a/|	.	2ryy	.	.	.	.
8AA'/	.	.	.	.	.	.	.	.	.	.
8AA'/	.	4g#/	.	4b/|	.	.	.	.	.	.
8AA'/J)	.	.	.	.	.	.	.	.	.	.
=81	=81	=81	=81	=81	=81	=81	=81	=81	=81	=81
4AA/	.	8a/	.	8cc#\	.	2ryy	.	.	.	.
.	.	16e/LL	.	16e/LL	.	.	.	.	.	.
.	.	16c#/JJ	.	16c#/JJ	.	.	.	.	.	.
4r	.	8A/	.	8A/L	.	.	.	.	.	.
.	.	16e/LL	.	16e/L	.	.	.	.	.	.
.	.	16c#/JJ	.	16c#/JJ	.	.	.	.	.	.
=82	=82	=82	=82	=82	=82	=82	=82	=82	=82	=82
!	!	!	!	!	!	!	!	!	!LO:N:vis=00	!
(8AA'/L	.	4A/	.	4A/	.	2ryy	.	.	0r	.
8AA'/	.	.	.	.	.	.	.	.	.	.
8AA'/	.	4g#/	.	4bT\	.	.	.	.	.	.
8AA'/J)	.	.	.	.	.	.	.	.	.	.
=83	=83	=83	=83	=83	=83	=83	=83	=83	=83	=83
(8AA'/L	.	(16a\LL	.	(16cc#\LL	.	2ryy	.	.	.	.
.	.	16b\JJ)	.	16dd\JJ)	.	.	.	.	.	.
8AA'/	.	4cc#\	.	4ee\	.	.	.	.	.	.
8AA'/	.	.	.	.	.	.	.	.	.	.
8AA'/J)	.	8e/	.	8e/	.	.	.	.	.	.
=84	=84	=84	=84	=84	=84	=84	=84	=84	=84	=84
(8AA'/L	.	4e/	.	4a/	.	2ryy	.	.	.	.
8AA'/	.	.	.	.	.	.	.	.	.	.
8AA'/	.	4g#/	.	4bT/	.	.	.	.	.	.
8AA'/J)	.	.	.	.	.	.	.	.	.	.
=85	=85	=85	=85	=85	=85	=85	=85	=85	=85	=85
4AA/	.	8a/	.	8cc#\	.	2ryy	.	.	.	.
.	.	16e/LL	.	16e/LL	.	.	.	.	.	.
.	.	16c#/JJ	.	16c#/JJ	.	.	.	.	.	.
4r	.	8A/	.	8A/L	.	.	.	.	.	.
.	.	16e/LL	.	16e/L	.	.	.	.	.	.
.	.	16c#/JJ	.	16c#/JJ	.	.	.	.	.	.
=86	=86	=86	=86	=86	=86	=86	=86	=86	=86	=86
!	!	!LO:TX:a:t=P:problem=mixed beam	!	!	!	!	!	!	!	!
!	!	!	!	!	!	!	!	!	!LO:N:vis=00	!
8r	.	8A/L|	.	8A/	.	2ryy	.	.	0r	.
8AA/L	.	(8ff#\	.	(8aa\L	.	.	.	.	.	.
8AA/	.	8ee\	.	8gg#\)	.	.	.	.	.	.
8AA/J	.	8dd\J)	.	8ff#\J	.	.	.	.	.	.
=87	=87	=87	=87	=87	=87	=87	=87	=87	=87	=87
4AA/	.	8cc#\	.	8ee\	.	2ryy	.	.	.	.
.	.	16e/LL	.	16e/LL	.	.	.	.	.	.
.	.	16c#/JJ	.	16c#/JJ	.	.	.	.	.	.
4r	.	8A/	.	8A/	.	.	.	.	.	.
.	.	16e/LL	.	16e/LL	.	.	.	.	.	.
.	.	16c#/JJ	.	16c#/JJ	.	.	.	.	.	.
=88	=88	=88	=88	=88	=88	=88	=88	=88	=88	=88
8r	.	8A/	.	8A/	.	2ryy	.	.	.	.
8AA/L	.	(8dd\L	.	(8ff#\L	.	.	.	.	.	.
8AA/	.	8cc#\	.	8ee\	.	.	.	.	.	.
8AA/J	.	8b\J)	.	8dd\J)	.	.	.	.	.	.
!LO:LB:g=original	!	!	!	!LO:LB:g=original	!	!	!	!	!	!
=89	=89	=89	=89	=89	=89	=89	=89	=89	=89	=89
4AA/	.	8a/	.	8cc#\	.	2ryy	.	.	.	.
.	.	16e/LL	.	16e/LL	.	.	.	.	.	.
.	.	16c#/JJ	.	16c#/JJ	.	.	.	.	.	.
4r	.	8A/	.	8A/	.	.	.	.	.	.
.	.	16e/LL	.	16e/LL	.	.	.	.	.	.
.	.	16c#/JJ	.	16c#/JJ	.	.	.	.	.	.
=90	=90	=90	=90	=90	=90	=90	=90	=90	=90	=90
!	!	!	!	!	!	!	!	!	!LO:N:vis=00	!
8r	.	8A/	.	8A/	.	2ryy	.	.	0r	.
!	!	!LO:LB:g=original	!	!	!	!	!	!	!	!
8AA/L	.	8ff#\L	.	(8aa\L	.	.	.	.	.	.
8AA/	.	8ee\	.	8gg#\	.	.	.	.	.	.
8AA/J	.	8dd\J	.	8ff#\J)	.	.	.	.	.	.
=91	=91	=91	=91	=91	=91	=91	=91	=91	=91	=91
4AA/	.	8cc#\	.	8ee\	.	2ryy	.	.	.	.
.	.	16e/LL	.	16e/LL	.	.	.	.	.	.
.	.	16c#/JJ	.	16c#/JJ	.	.	.	.	.	.
4r	.	8A/	.	8A/	.	.	.	.	.	.
.	.	16e/LL	.	16a/LL	.	.	.	.	.	.
.	.	16c#/JJ	.	16f#/JJ	.	.	.	.	.	.
=92	=92	=92	=92	=92	=92	=92	=92	=92	=92	=92
8D/|	.	8d/	.	8d/	.	2ryy	.	.	.	.
8r	.	16b/LL	.	16b\LL	.	.	.	.	.	.
.	.	16g#/JJ	.	16g#\JJ	.	.	.	.	.	.
8E\	.	8e/	.	8e/	.	.	.	.	.	.
8r	.	16ee\LL	.	16ee\LL	.	.	.	.	.	.
.	.	16cc#\JJ	.	16cc#\JJ	.	.	.	.	.	.
=93	=93	=93	=93	=93	=93	=93	=93	=93	=93	=93
!	!	!	!	!LO:TX:a:t=P:problem=mixed beam	!	!	!	!	!	!
8A\|	.	8a/	.	8a/L	.	2ryy	.	.	.	.
8r	.	16aa\LL	.	16aa\L	.	.	.	.	.	.
.	.	16ff#\JJ	.	16ff#\JJ	.	.	.	.	.	.
8B\	.	8dd\	.	8dd\	.	.	.	.	.	.
8r	.	16b\LL	.	16b\LL	.	.	.	.	.	.
.	.	16g#\JJ	.	16g#\JJ	.	.	.	.	.	.
=94	=94	=94	=94	=94	=94	=94	=94	=94	=94	=94
!	!	!LO:TX:a:t=P:problem=mixed beam	!	!LO:TX:a:t=P:problem=mixed beam	!	!	!	!	!	!
!	!	!	!	!	!	!	!	!	!LO:N:vis=00	!
8G#\L	.	16e/LL	.	16e/LL	.	2ryy	.	.	0r	.
.	.	16dd\	.	16dd\	.	.	.	.	.	.
8A\	.	16cc#\	.	16cc#\	.	.	.	.	.	.
.	.	16b\JJ	.	16b\JJ	.	.	.	.	.	.
8D\	.	8f#/L	.	8f#/L	.	.	.	.	.	.
8E\J	.	8g#/J	.	8g#/J	.	.	.	.	.	.
=95	=95	=95	=95	=95	=95	=95	=95	=95	=95	=95
8A\	.	8a/	.	8a/	.	2ryy	.	.	.	.
8r	.	16aa\LL	.	16aa\LL	.	.	.	.	.	.
.	.	16ff#\JJ	.	16ff#\JJ	.	.	.	.	.	.
8B\	.	8dd\	.	8dd\	.	.	.	.	.	.
8r	.	16b\LL	.	16b\LL	.	.	.	.	.	.
.	.	16g#\JJ	.	16g#\JJ	.	.	.	.	.	.
=96	=96	=96	=96	=96	=96	=96	=96	=96	=96	=96
!	!	!LO:TX:a:t=P:problem=mixed beam	!	!LO:TX:a:t=P:problem=mixed beam	!	!	!	!	!	!
8G#\L	.	16e/LL	.	16e/LL	.	2ryy	.	.	.	.
.	.	16dd\	.	16dd\	.	.	.	.	.	.
8A\	.	16cc#\	.	16cc#\	.	.	.	.	.	.
.	.	16b\JJ	.	16b\JJ	.	.	.	.	.	.
8D\	.	8f#/L	.	8f#/L	.	.	.	.	.	.
8E\J	.	8g#/J	.	8g#/J	.	.	.	.	.	.
!	!	!	!	!LO:LB:g=original	!	!	!	!	!	!
=97	=97	=97	=97	=97	=97	=97	=97	=97	=97	=97
!	!	!LO:TX:a:t=P:problem=mixed beam	!	!	!	!	!	!	!	!
4AA/	.	8a/L	.	8a/L	.	2ryy	.	.	.	.
.	.	8A\J	.	8A/J	.	.	.	.	.	.
4r	.	4r	.	4r	.	.	.	.	.	.
=98	=98	=98	=98	=98	=98	=98	=98	=98	=98	=98
!	!	!	!LO:DY:a:t=pia.	!	!	!	!	!	!	!
(8AA'/L	.	4a\	p	4a/	p	2ryy	.	.	4a\|	Vir-
8AA'/	.	.	.	.	.	.	.	.	.	.
8AA'/	.	4b\	.	4bT/	.	.	.	.	4b\|	-go
8AA'/J)	.	.	.	.	.	.	.	.	.	.
=99	=99	=99	=99	=99	=99	=99	=99	=99	=99	=99
(8AA'/L	.	16cc#\LL	.	16cc#\LL	.	2ryy	.	.	(16cc#\LL	gau-
.	.	16dd\JJ	.	16dd\JJ	.	.	.	.	16dd\JJ)	.
8AA'/	.	4ee\	.	4ee\	.	.	.	.	4ee\	-de
8AA'/	.	.	.	.	.	.	.	.	.	.
8AA'/J)	.	8e/	.	8e/	.	.	.	.	8e/	.
=100	=100	=100	=100	=100	=100	=100	=100	=100	=100	=100
(8AA'/L	.	4a/	.	4a/	.	2ryy	.	.	4a\|	quod
8AA'/	.	.	.	.	.	.	.	.	.	.
8AA'/	.	4b/	.	4b/	.	.	.	.	4b\|	de
8AA'/J)	.	.	.	.	.	.	.	.	.	.
=101	=101	=101	=101	=101	=101	=101	=101	=101	=101	=101
4AA/	.	8cc#\	.	8cc#\	.	2ryy	.	.	16cc#\LL	frau
.	.	.	.	.	.	.	.	.	16b\JJ	.
.	.	(16e/LL	.	16e/LL	.	.	.	.	8a\	de
.	.	16c#/JJ)	.	16c#/JJ	.	.	.	.	.	.
4r	.	8A/	.	8A/	.	.	.	.	4r	.
.	.	16e/LL	.	16e/LL	.	.	.	.	.	.
.	.	16c#/JJ	.	16c#/JJ	.	.	.	.	.	.
!LO:LB:g=original	!	!LO:LB:g=original	!	!	!	!	!	!	!	!
=102	=102	=102	=102	=102	=102	=102	=102	=102	=102	=102
8AA/L	.	4A/	.	4A/	.	2ryy	.	.	4a\|	Vir-
8AA/	.	.	.	.	.	.	.	.	.	.
8AA/	.	4g#/	.	4b\	.	.	.	.	4b\|	-go
8AA/J	.	.	.	.	.	.	.	.	.	.
=103	=103	=103	=103	=103	=103	=103	=103	=103	=103	=103
8AA/L	.	(16a\LL	.	(16cc#\LL	.	2ryy	.	.	(16cc#\LL	gau-
.	.	16b\JJ)	.	16dd\JJ)	.	.	.	.	16dd\JJ)	.
8AA/	.	4cc#\	.	4ee\	.	.	.	.	4ee\	-de
8AA/	.	.	.	.	.	.	.	.	.	.
8AA/J	.	8e/	.	8e/	.	.	.	.	8e/	.
=104	=104	=104	=104	=104	=104	=104	=104	=104	=104	=104
8AA/L	.	4e/	.	4a/	.	2ryy	.	.	4a\|	Vir-
8AA/	.	.	.	.	.	.	.	.	.	.
8AA/	.	4g#/	.	4b/	.	.	.	.	4b\|	-go
8AA/J	.	.	.	.	.	.	.	.	.	.
=105	=105	=105	=105	=105	=105	=105	=105	=105	=105	=105
4AA/	.	8a/	.	8cc#\	.	2ryy	.	.	16cc#\LL	gau-
.	.	.	.	.	.	.	.	.	16b\JJ	.
.	.	16e/LL	.	16e/LL	.	.	.	.	8a\	-de
.	.	16c#/JJ	.	16c#/JJ	.	.	.	.	.	.
4r	.	8A/	.	8A/	.	.	.	.	4r	.
.	.	16e/LL	.	16e/LL	.	.	.	.	.	.
.	.	16c#/JJ	.	16c#/JJ	.	.	.	.	.	.
=106	=106	=106	=106	=106	=106	=106	=106	=106	=106	=106
!	!	!	!	!LO:TX:a:t=P:problem=mixed beam	!	!	!	!	!	!
8r	.	8c#/|	.	8A/L	.	2ryy	.	.	8r	.
8AA/L	.	(8ff#\L	.	(8aa\	.	.	.	.	8ff#\L	Vir-
8AA/	.	8ee\	.	8gg#\	.	.	.	.	8ee\J	.
8AA/J	.	8dd\J)	.	8ff#\J)	.	.	.	.	8dd\	-go
=107	=107	=107	=107	=107	=107	=107	=107	=107	=107	=107
4AA/	.	8cc#\	.	8ee\	.	2ryy	.	.	16cc#\LL	gau-
.	.	.	.	.	.	.	.	.	16dd\JJ	.
.	.	16e/LL	.	16e/LL	.	.	.	.	8ee\	-de
.	.	16c#/JJ	.	16c#/JJ	.	.	.	.	.	.
4r	.	8A/	.	8A/	.	.	.	.	4r	.
.	.	16e/LL	.	16e/LL	.	.	.	.	.	.
.	.	16c#/JJ	.	16c#/JJ	.	.	.	.	.	.
!	!	!	!	!LO:LB:g=original	!	!	!	!	!LO:LB:g=original	!
=108	=108	=108	=108	=108	=108	=108	=108	=108	=108	=108
8r	.	8A/|	.	8A/L	.	2ryy	.	.	8r	.
8AA/L	.	(8dd\L	.	(8ff#\	.	.	.	.	8dd\L	quod
8AA/	.	8cc#\	.	8ee\	.	.	.	.	8cc#\J	.
8AA/J	.	8b\J)	.	8dd\J)	.	.	.	.	8b\	de
=109	=109	=109	=109	=109	=109	=109	=109	=109	=109	=109
4AA/	.	8a/	.	8cc#\	.	2ryy	.	.	16cc#\LL	frau-
.	.	.	.	.	.	.	.	.	16b\JJ	.
.	.	16e/LL	.	16e/LL	.	.	.	.	8a\	-de
.	.	16c#/JJ	.	16c#/JJ	.	.	.	.	.	.
4r	.	8A/	.	8A/	.	.	.	.	4r	.
.	.	16e/LL	.	16e/LL	.	.	.	.	.	.
.	.	16c#/JJ	.	16c#/JJ	.	.	.	.	.	.
=110	=110	=110	=110	=110	=110	=110	=110	=110	=110	=110
!	!	!	!LO:DY:a:t=pia.	!	!	!	!	!	!	!
8A\L	.	8A/	p	8A/	.	2ryy	.	.	[8cc#\	Vir-
8A\	.	4cc#\	.	4cc#\	.	.	.	.	4cc#\]	.
8A\	.	.	.	.	.	.	.	.	.	.
8A\J	.	8ee\	.	8ee\	p	.	.	.	8ee\	-go
=111	=111	=111	=111	=111	=111	=111	=111	=111	=111	=111
8G#\L	.	8b\	.	8b/	.	2ryy	.	.	[8b\	gau-
8G#\	.	4b\	.	4b/	.	.	.	.	4b\]	.
8G#\	.	.	.	.	.	.	.	.	.	.
8G#\J	.	8ee\	.	8ee\	.	.	.	.	8ee\	-de
=112	=112	=112	=112	=112	=112	=112	=112	=112	=112	=112
8F#\L	.	8a/	.	8a/	.	2ryy	.	.	[8a\	quod
8F#\	.	4a/	.	4a/	.	.	.	.	4a\]	.
8F#\	.	.	.	.	.	.	.	.	.	.
8F#\J	.	8dd\	.	8ee\	.	.	.	.	8ee\	de
=113	=113	=113	=113	=113	=113	=113	=113	=113	=113	=113
8E\L	.	8g#/L	.	8g#/L	.	2ryy	.	.	16g#/LL	frau-
.	.	.	.	.	.	.	.	.	16f#/J	.
8E\	.	8g#/	.	8b/	.	.	.	.	8e/J	.
8E\	.	8g#/	.	8b/	.	.	.	.	4b\	.
8E\J	.	8g#/J	.	8b/J	.	.	.	.	.	.
!	!	!LO:LB:g=original	!	!	!	!	!	!	!	!
=114	=114	=114	=114	=114	=114	=114	=114	=114	=114	=114
.	.	.	.	.	.	.	.	.	8qqcc#/	.
8D#X/L	.	8f#/L	.	8b/L	.	2ryy	.	.	8b\L	.
8D#/	.	8f#/	.	8b/	.	.	.	.	16a\L	.
.	.	.	.	.	.	.	.	.	16g#\JJ	.
.	.	.	.	.	.	.	.	.	8qqb/	.
8D#/	.	8a/	.	8b/	.	.	.	.	8a\L	.
8D#/J	.	8a/J	.	8b/J	.	.	.	.	16g#\L	.
.	.	.	.	.	.	.	.	.	16f#\JJ	.
!LO:LB:g=original	!	!	!	!	!	!	!	!	!	!
=115	=115	=115	=115	=115	=115	=115	=115	=115	=115	=115
.	.	.	.	.	.	.	.	.	8qqa/	.
8E\L	.	8g#/L	.	8b/L	.	2ryy	.	.	8g#/L	.
8E\	.	8g#/	.	8b/	.	.	.	.	16f#/L	.
.	.	.	.	.	.	.	.	.	16e/JJ	.
8E\	.	8g#/	.	8b/	.	.	.	.	[4b\	.
8E\J	.	8g#/J	.	8b/J	.	.	.	.	.	.
=116	=116	=116	=116	=116	=116	=116	=116	=116	=116	=116
8D#X\L	.	8f#/L	.	8b/L	.	2ryy	.	.	8b\L]	.
8D#\	.	8f#/	.	8b/	.	.	.	.	16a\L	.
.	.	.	.	.	.	.	.	.	16g#\JJ	.
.	.	.	.	.	.	.	.	.	8qqb/	.
8D#\	.	8a/	.	8b/	.	.	.	.	8a\L	.
8D#\J	.	8a/J	.	8b/J	.	.	.	.	16g#\L	.
.	.	.	.	.	.	.	.	.	16f#\JJ	.
!	!	!	!	!	!	!	!	!	!LO:LB:g=original	!
=117	=117	=117	=117	=117	=117	=117	=117	=117	=117	=117
.	.	.	.	.	.	.	.	.	8qqa/	.
8E\L	.	8g#/L	.	8b/L	.	2ryy	.	.	8g#/L	.
8E\	.	8g#/	.	8b/	.	.	.	.	16f#/L	.
.	.	.	.	.	.	.	.	.	16e/JJ	.
8E\	.	8g#/	.	8b/	.	.	.	.	4ee\	.
8E\J	.	8g#/J	.	8b/J	.	.	.	.	.	.
=118	=118	=118	=118	=118	=118	=118	=118	=118	=118	=118
8G#\L	.	8e/L	.	8b/L	.	2ryy	.	.	8ee\L	.
8G#\	.	8e/	.	8b/	.	.	.	.	16dd\L	.
.	.	.	.	.	.	.	.	.	16cc#\JJ	.
.	.	.	.	.	.	.	.	.	8qqee/	.
8G#\	.	8e/	.	8b/	.	.	.	.	8dd\L	.
8G#\J	.	8e/J	.	8b/J	.	.	.	.	16cc#\L	.
.	.	.	.	.	.	.	.	.	16b\JJ	.
=119	=119	=119	=119	=119	=119	=119	=119	=119	=119	=119
!	!	!LO:TX:a:t=P:problem=mixed beam	!	!	!	!	!	!	!	!
8A\L	.	8e/L	.	8cc#\L	.	2ryy	.	.	8cc#\L	.
8A\	.	8cc#\	.	8ee\	.	.	.	.	16b\L	.
.	.	.	.	.	.	.	.	.	16a\JJ	.
8A\	.	8cc#\	.	8ee\	.	.	.	.	4ee\	.
8A\J	.	8cc#\J	.	8ee\J	.	.	.	.	.	.
!	!	!	!	!LO:LB:g=original	!	!	!	!	!	!
=120	=120	=120	=120	=120	=120	=120	=120	=120	=120	=120
8G#\L	.	8b\L	.	8ee\L	.	2ryy	.	.	8ee\L	.
8G#\	.	8b\	.	8ee\	.	.	.	.	16dd\L	.
.	.	.	.	.	.	.	.	.	16cc#\JJ	.
.	.	.	.	.	.	.	.	.	8qqee/	.
8G#\	.	8b\	.	8ee\	.	.	.	.	8dd\L	.
8G#\J	.	8b\J	.	8ee\J	.	.	.	.	16cc#\L	.
.	.	.	.	.	.	.	.	.	16b\JJ	.
=121	=121	=121	=121	=121	=121	=121	=121	=121	=121	=121
8A\L	.	8cc#\L	.	8ee\L	.	2ryy	.	.	8cc#\L	.
8A\	.	8cc#\	.	8ee\	.	.	.	.	16b\L	.
.	.	.	.	.	.	.	.	.	16a\JJ	.
8A\	.	8cc#\	.	8ee\	.	.	.	.	4ee\	.
8A\J	.	8cc#\J	.	8ee\J	.	.	.	.	.	.
=122	=122	=122	=122	=122	=122	=122	=122	=122	=122	=122
8A#X\L	.	8cc#\L	.	8ee\L	.	2ryy	.	.	8ff#\L	.
8A#\	.	8cc#\	.	8ee\	.	.	.	.	16dd#X\L	.
.	.	.	.	.	.	.	.	.	16cc#\JJ	.
8A#\	.	8cc#\	.	8ee\	.	.	.	.	16ff#\LL	.
.	.	.	.	.	.	.	.	.	16ee\	.
8A#\J	.	8cc#\J	.	8ee\J	.	.	.	.	16dd#X\	.
.	.	.	.	.	.	.	.	.	16cc#\JJ	.
=123	=123	=123	=123	=123	=123	=123	=123	=123	=123	=123
8B\L	.	8dd#X\L	.	8dd#X\L	.	2ryy	.	.	16dd#X\LL	.
.	.	.	.	.	.	.	.	.	16cc#\J	.
8B\	.	8b\J	.	8b\J	.	.	.	.	8dd#\J	.
8G#\	.	8bb\	.	8bb\	.	.	.	.	16r	.
.	.	.	.	.	.	.	.	.	16ff#\LL	.
8G#\J	.	8r	.	8r	.	.	.	.	16ee\	.
.	.	.	.	.	.	.	.	.	16dd#\JJ	.
=124	=124	=124	=124	=124	=124	=124	=124	=124	=124	=124
8A\L	.	8cc#\L	.	8cc#\L	.	2ryy	.	.	16cc#\LL	.
.	.	.	.	.	.	.	.	.	16b\J	.
8A\	.	8a\J	.	8a\J	.	.	.	.	8cc#\J	.
8F#\	.	8aa\	.	8aa\	.	.	.	.	16r	.
.	.	.	.	.	.	.	.	.	16ee\LL	.
8F#\J	.	8r	.	8r	.	.	.	.	16dd#X\	.
.	.	.	.	.	.	.	.	.	16cc#\JJ	.
!	!	!	!	!	!	!	!	!	!LO:LB:g=original	!
=125	=125	=125	=125	=125	=125	=125	=125	=125	=125	=125
8G#\L	.	8b\L	.	8b/L	.	2ryy	.	.	16b\LL	.
.	.	.	.	.	.	.	.	.	16a\J	.
8G#\	.	8g#\J	.	8g#/J	.	.	.	.	8b\J	.
8E\	.	8gg#\	.	8gg#\	.	.	.	.	16r	.
.	.	.	.	.	.	.	.	.	16cc#\LL	.
8E\J	.	8r	.	8r	.	.	.	.	16b\	.
.	.	.	.	.	.	.	.	.	16a\JJ	.
=126	=126	=126	=126	=126	=126	=126	=126	=126	=126	=126
8F#\L	.	8a/L	.	8a/L	.	2ryy	.	.	16a\LL	.
.	.	.	.	.	.	.	.	.	16g#\J	.
8F#\	.	8f#/J	.	8f#/J	.	.	.	.	8a\J	.
8D#X\	.	8ff#\	.	8ff#\	.	.	.	.	16r	.
.	.	.	.	.	.	.	.	.	16b\LL	.
8D#\J	.	8r	.	8r	.	.	.	.	16a\	.
.	.	.	.	.	.	.	.	.	16g#\JJ	.
!LO:LB:g=original	!	!	!	!	!	!	!	!	!	!
=127	=127	=127	=127	=127	=127	=127	=127	=127	=127	=127
8E\L	.	8e/L	.	8g#/L	.	2ryy	.	.	16g#\LL	.
.	.	.	.	.	.	.	.	.	16b\	.
8E\	.	8g#/	.	8b/	.	.	.	.	16b\	.
.	.	.	.	.	.	.	.	.	16b\JJ	.
8E\	.	8g#/	.	8b/	.	.	.	.	16g#\LL	.
.	.	.	.	.	.	.	.	.	16b\	.
8E\J	.	8g#/J	.	8b/J	.	.	.	.	16b\	.
.	.	.	.	.	.	.	.	.	16b\JJ	.
=128	=128	=128	=128	=128	=128	=128	=128	=128	=128	=128
4D#X/	.	8f#/	.	8b/	.	2ryy	.	.	16ff#\LL	.
.	.	.	.	.	.	.	.	.	16ee\	.
.	.	8r	.	8r	.	.	.	.	16dd#X\	.
.	.	.	.	.	.	.	.	.	16cc#\JJ	.
4r	.	4r	.	4r	.	.	.	.	16b\LL	.
.	.	.	.	.	.	.	.	.	16a\	.
.	.	.	.	.	.	.	.	.	16g#\	.
.	.	.	.	.	.	.	.	.	16f#\JJ	.
!	!	!LO:LB:g=original	!	!	!	!	!	!	!	!
=129	=129	=129	=129	=129	=129	=129	=129	=129	=129	=129
8E\L	.	8e/L	.	8g#/L	.	2ryy	.	.	16g#\LL	.
.	.	.	.	.	.	.	.	.	16b\	.
8E\	.	8g#/	.	8b/	.	.	.	.	16b\	.
.	.	.	.	.	.	.	.	.	16b\JJ	.
8E\	.	8g#/	.	8b/	.	.	.	.	16g#\LL	.
.	.	.	.	.	.	.	.	.	16b\	.
8E\J	.	8g#/J	.	8b/J	.	.	.	.	16b\	.
.	.	.	.	.	.	.	.	.	16b\JJ	.
=130	=130	=130	=130	=130	=130	=130	=130	=130	=130	=130
4D#X/	.	8f#/	.	8b/	.	2ryy	.	.	16ff#\LL	.
.	.	.	.	.	.	.	.	.	16ee\	.
.	.	8r	.	8r	.	.	.	.	16dd#X\	.
.	.	.	.	.	.	.	.	.	16cc#\JJ	.
4r	.	4r	.	4r	.	.	.	.	16b\LL	.
.	.	.	.	.	.	.	.	.	16a\	.
.	.	.	.	.	.	.	.	.	16g#\	.
.	.	.	.	.	.	.	.	.	16f#\JJ	.
=131	=131	=131	=131	=131	=131	=131	=131	=131	=131	=131
8E\L	.	4g#/	.	4g#/	.	2ryy	.	.	4g#\	.
8BB\	.	.	.	.	.	.	.	.	.	.
8F#\	.	(16a/LL	.	(16a\LL	.	.	.	.	(16a\LL	.
!	!	!	!LO:DY:b:t=pia.	!	!	!	!	!	!	!
.	.	16b/	p	16b\	.	.	.	.	16b\	.
8BB\J	.	16cc#/	.	16cc#\	.	.	.	.	16cc#\	.
!	!	!	!	!LO:SIC:o:s=:v:krzyżyk nad dźwiękiem	!	!	!	!	!	!
.	.	16dd#X/JJ)	.	16dd#X\JJ)	.	.	.	.	16dd#X\JJ)	.
!	!	!	!	!LO:LB:g=original	!	!	!	!	!	!
=132	=132	=132	=132	=132	=132	=132	=132	=132	=132	=132
8G#\L	.	4ee\	.	4ee\	.	2ryy	.	.	4ee\	.
8BB\	.	.	.	.	.	.	.	.	.	.
8F#\	.	(16dd#X\LL	.	(16dd#X\LL	.	.	.	.	(16dd#X\LL	.
.	.	16cc#\	.	16cc#\	.	.	.	.	16cc#\	.
8BB\J	.	16b\	.	16b\	.	.	.	.	16b\	.
.	.	16a\JJ)	.	16a\JJ)	.	.	.	.	16a\JJ)	.
!	!	!	!	!	!	!	!	!	!LO:LB:g=original	!
=133	=133	=133	=133	=133	=133	=133	=133	=133	=133	=133
.	.	8qqa/	.	8qqa/	.	.	.	.	.	.
8E\L	.	4g#/	.	4g#/	.	2ryy	.	.	4g#\	.
8BB\	.	.	.	.	.	.	.	.	.	.
8F#\	.	(16a/LL	.	(16a\LL	.	.	.	.	(16a\LL	.
.	.	16b/	.	16b\	.	.	.	.	16b\	.
8BB\J	.	16cc#/	.	16cc#\	.	.	.	.	16cc#\	.
.	.	16dd#X/JJ)	.	16dd#X\JJ)	.	.	.	.	16dd#X\JJ)	.
=134	=134	=134	=134	=134	=134	=134	=134	=134	=134	=134
8G#\L	.	4ee\	.	4ee\	.	2ryy	.	.	4ee\	.
8BB\	.	.	.	.	.	.	.	.	.	.
8F#\	.	(16dd#X\LL	.	(16dd#X\LL	.	.	.	.	16dd#X\LL	.
.	.	16cc#\	.	16cc#\	.	.	.	.	16cc#\	.
8BB\J	.	16b\	.	16b\	.	.	.	.	16b\	.
.	.	16a\JJ)	.	16a\JJ)	.	.	.	.	16a\JJ	.
=135	=135	=135	=135	=135	=135	=135	=135	=135	=135	=135
.	.	8qqa/	.	8qqa/	.	.	.	.	8qqa/	.
8E\L	.	4g#/	.	4g#/	.	2ryy	.	.	4g#\	.
8BB\	.	.	.	.	.	.	.	.	.	.
8F#\	.	(16a/LL	.	(16a\LL	.	.	.	.	16a\LL	.
.	.	16b/	.	16b\	.	.	.	.	16b\	.
8BB\J	.	16cc#/	.	16cc#\	.	.	.	.	16cc#\	.
.	.	16dd#X/JJ)	.	16dd#X\JJ)	.	.	.	.	16dd#X\JJ	.
=136	=136	=136	=136	=136	=136	=136	=136	=136	=136	=136
4G#\	.	16ee\LL	.	16ee\LL	.	2ryy	.	.	16ee\LL	.
.	.	16gg#\	.	16gg#\	.	.	.	.	16gg#\	.
.	.	16ff#\	.	16ff#\	.	.	.	.	16ff#\	.
.	.	16ee\JJ	.	16ee\JJ	.	.	.	.	16ee\JJ	.
8r	.	16dd#X\LL	.	16dd#X\LL	.	.	.	.	16dd#X\LL	.
.	.	16cc#\	.	16cc#\	.	.	.	.	16cc#\	.
8A\	.	16b\	.	16b\	.	.	.	.	16b\	.
.	.	16a\JJ	.	16a\JJ	.	.	.	.	16a\JJ	.
=137	=137	=137	=137	=137	=137	=137	=137	=137	=137	=137
4B\	.	4g#/	.	4g#/	.	2ryy	.	.	16g#/LL	.
.	.	.	.	.	.	.	.	.	16f#/J	.
.	.	.	.	.	.	.	.	.	8e/J	.
4BB/	.	4f#/	.	4f#/	.	.	.	.	4f#/	.
=138	=138	=138	=138	=138	=138	=138	=138	=138	=138	=138
8E\L	.	4cc#\	.	4ee\	.	2ryy	.	.	4e/	-de
8E\	.	.	.	.	.	.	.	.	.	.
8E\	.	4dd#Xt\	.	4ff#\	f	.	.	.	4r	.
8E\J	.	.	.	.	.	.	.	.	.	.
=139	=139	=139	=139	=139	=139	=139	=139	=139	=139	=139
!	!	!	!	!	!	!	!	!	!LO:N:vis=0	!
8E\L	.	16ee\LL	.	16gg#\LL	.	2ryy	.	.	1r	.
.	.	16ff#\JJ	.	16aa\JJ	.	.	.	.	.	.
8E\	.	4gg#\	.	4bb\	.	.	.	.	.	.
8E\	.	.	.	.	.	.	.	.	.	.
8E\J	.	8b\	.	8b/	.	.	.	.	.	.
=140	=140	=140	=140	=140	=140	=140	=140	=140	=140	=140
8E\L	.	4b\	.	4ee\	.	2ryy	.	.	.	.
8E\	.	.	.	.	.	.	.	.	.	.
8E\	.	4dd#X\	.	4ff#\	.	.	.	.	.	.
8E\J	.	.	.	.	.	.	.	.	.	.
=141	=141	=141	=141	=141	=141	=141	=141	=141	=141	=141
4E\	.	4ee\	.	16gg#\LL	.	2ryy	.	.	2r	.
.	.	.	.	16ee\	.	.	.	.	.	.
.	.	.	.	16b\	.	.	.	.	.	.
.	.	.	.	16g#\JJ	.	.	.	.	.	.
4r	.	4r	.	4e/	.	.	.	.	.	.
!LO:LB:g=original	!	!LO:LB:g=original	!	!	!	!	!	!	!	!
=142	=142	=142	=142	=142	=142	=142	=142	=142	=142	=142
!	!	!	!	!	!LO:DY:b:t=pia.	!	!	!	!	!
8AA/L	.	4e/	.	4a/	p	2ryy	.	.	4a\	Vir-
8AA/	.	.	.	.	.	.	.	.	.	.
8AA/	.	4g#/	.	4b/	.	.	.	.	4b\	-go
8AA/J	.	.	.	.	.	.	.	.	.	.
!	!	!	!	!LO:LB:g=original	!	!	!	!	!	!
=143	=143	=143	=143	=143	=143	=143	=143	=143	=143	=143
8AA/L	.	(16a\LL	.	(16cc#\LL	.	2ryy	.	.	16cc#\LL	gau-
.	.	16b\JJ)	.	16dd\JJ)	.	.	.	.	16dd\JJ	.
8AA/	.	4cc#\	.	4ee\	.	.	.	.	4ee\	-de
8AA/	.	.	.	.	.	.	.	.	.	.
8AA/J	.	8e/	.	8e/	.	.	.	.	8e/	.
=144	=144	=144	=144	=144	=144	=144	=144	=144	=144	=144
8AA/L	.	4e/	.	4a/	.	2ryy	.	.	4a\	quod
8AA/	.	.	.	.	.	.	.	.	.	.
8AA/	.	4g#/	.	4b/	.	.	.	.	4b\	de
8AA/J	.	.	.	.	.	.	.	.	.	.
!	!	!	!	!	!	!	!	!	!LO:LB:g=original	!
=145	=145	=145	=145	=145	=145	=145	=145	=145	=145	=145
4AA/	.	8a/	.	8cc#\	.	2ryy	.	.	16cc#\LL	frau-
.	.	.	.	.	.	.	.	.	16b\JJ	.
.	.	16e/LL	.	16e/LL	.	.	.	.	8a\	-de
.	.	16c#/JJ	.	16c#/JJ	.	.	.	.	.	.
4r	.	8A/	.	8A/	.	.	.	.	4r	.
.	.	16e/LL	.	16e/LL	.	.	.	.	.	.
.	.	16c#/JJ	.	16c#/JJ	.	.	.	.	.	.
=146	=146	=146	=146	=146	=146	=146	=146	=146	=146	=146
8AA/L	.	4A/	.	4A/	.	2ryy	.	.	4ee\	Vir-
8AA/	.	.	.	.	.	.	.	.	.	.
8C#/	.	4r	.	4r	.	.	.	.	4gn/	-go
8C#/J	.	.	.	.	.	.	.	.	.	.
=147	=147	=147	=147	=147	=147	=147	=147	=147	=147	=147
4D/	.	8r	.	8r	.	2ryy	.	.	16f#/LL	gau-
.	.	.	.	.	.	.	.	.	16e/JJ	.
.	.	16f#/LL	.	16f#/LL	.	.	.	.	8d/	-de
.	.	16d/JJ	.	16d/JJ	.	.	.	.	.	.
4r	.	8B/	.	8A/	.	.	.	.	4r	.
.	.	16f#/LL	.	16f#/LL	.	.	.	.	.	.
.	.	16d/JJ	.	16d/JJ	.	.	.	.	.	.
=148	=148	=148	=148	=148	=148	=148	=148	=148	=148	=148
8BB/L	.	8B/	.	8B/	.	2ryy	.	.	8r	.
8BB/	.	8r	.	8r	.	.	.	.	8ff#\	quod
8D#X/	.	4r	.	4r	.	.	.	.	8ff#\	de
8D#/J	.	.	.	.	.	.	.	.	8cc#\	frau-
=149	=149	=149	=149	=149	=149	=149	=149	=149	=149	=149
4E\	.	8r	.	8r	.	2ryy	.	.	16g#/LL	-de
.	.	.	.	.	.	.	.	.	16f#/JJ	.
.	.	16b\LL	.	16b/LL	.	.	.	.	8e/	.
.	.	16g#\JJ	.	16g#/JJ	.	.	.	.	.	.
4r	.	8e/	.	8e/	.	.	.	.	4r	.
.	.	8r	.	8r	.	.	.	.	.	.
=150	=150	=150	=150	=150	=150	=150	=150	=150	=150	=150
!LO:TX:a:t=P:problem=mixed beam	!	!	!	!	!	!	!	!	!	!
8E\L	.	16b\LL	.	16dd\LL	.	2ryy	.	.	4dd\	Vir-
.	.	16b\	.	16dd\	.	.	.	.	.	.
8EE/	.	16gg#\	.	16bb\	.	.	.	.	.	.
.	.	16gg#\JJ	.	16bb\JJ	.	.	.	.	.	.
8E\	.	16b\LL	.	16dd\LL	.	.	.	.	4b\	-go
.	.	16b\	.	16dd\	.	.	.	.	.	.
8EE/J	.	16gg#\	.	16bb\	.	.	.	.	.	.
.	.	16gg#\JJ	.	16bb\JJ	.	.	.	.	.	.
=151	=151	=151	=151	=151	=151	=151	=151	=151	=151	=151
!LO:TX:a:t=P:problem=mixed beam	!	!	!	!	!	!	!	!	!	!
8E\L	.	16a\LL	.	16cc#\LL	.	2ryy	.	.	8cc#\L	gau-
.	.	16a\	.	16cc#\	.	.	.	.	.	.
8EE/	.	16ee\	.	16aa\	.	.	.	.	16b\L	.
.	.	16ee\JJ	.	16aa\JJ	.	.	.	.	16a\JJ	.
8E\	.	16a\LL	.	16cc#\LL	.	.	.	.	4ee\	-de
.	.	16a\	.	16cc#\	.	.	.	.	.	.
8EE/J	.	16ee\	.	16aa\	.	.	.	.	.	.
.	.	16ee\JJ	.	16aa\JJ	.	.	.	.	.	.
!	!	!	!	!LO:LB:g=original	!	!	!	!	!	!
=152	=152	=152	=152	=152	=152	=152	=152	=152	=152	=152
!LO:TX:a:t=P:problem=mixed beam	!	!	!	!	!	!	!	!	!	!
8E\L	.	16b\LL	.	16dd\LL	.	2ryy	.	.	4dd\	quod
.	.	16b\	.	16dd\	.	.	.	.	.	.
8EE/	.	16gg#\	.	16bb\	.	.	.	.	.	.
.	.	16gg#\JJ	.	16bb\JJ	.	.	.	.	.	.
8E\	.	16b\LL	.	16dd\LL	.	.	.	.	4b\	de
.	.	16b\	.	16dd\	.	.	.	.	.	.
8EE/J	.	16gg#\	.	16bb\	.	.	.	.	.	.
.	.	16gg#\JJ	.	16bb\JJ	.	.	.	.	.	.
=153	=153	=153	=153	=153	=153	=153	=153	=153	=153	=153
!LO:TX:a:t=P:problem=mixed beam	!	!	!	!	!	!	!	!	!	!
8E\L	.	16a\LL	.	16cc#\LL	.	2ryy	.	.	8cc#\L	frau-
.	.	16a\	.	16cc#\	.	.	.	.	.	.
8EE/	.	16ee\	.	16aa\	.	.	.	.	16b\L	.
.	.	16ee\JJ	.	16aa\JJ	.	.	.	.	16a\JJ	.
8E\	.	16a\LL	.	16cc#\LL	.	.	.	.	4ee\	-de
.	.	16a\	.	16cc#\	.	.	.	.	.	.
8EE/J	.	16ee\	.	16aa\	.	.	.	.	.	.
.	.	16ee\JJ	.	16aa\JJ	.	.	.	.	.	.
!	!	!LO:LB:g=original	!	!	!	!	!	!	!	!
=154	=154	=154	=154	=154	=154	=154	=154	=154	=154	=154
!LO:TX:a:t=P:problem=mixed beam	!	!	!	!	!	!	!	!	!	!
8E\L	.	16b\LL	.	16dd\LL	.	2ryy	.	.	4r	.
.	.	16b\	.	16dd\	.	.	.	.	.	.
8EE/	.	16gg#\	.	16bb\	.	.	.	.	.	.
.	.	16gg#\JJ	.	16bb\JJ	.	.	.	.	.	.
8E\	.	16b\LL	.	16dd\LL	.	.	.	.	8dd\	Dae-
.	.	16b\	.	16dd\	.	.	.	.	.	.
8EE/J	.	16gg#\	.	16bb\	.	.	.	.	8b\	-mo-
.	.	16gg#\JJ	.	16bb\JJ	.	.	.	.	.	.
!LO:LB:g=original	!	!	!	!	!	!	!	!	!LO:LB:g=original	!
=155	=155	=155	=155	=155	=155	=155	=155	=155	=155	=155
8AA/L	.	8aa\L	.	8cc#\L	.	2ryy	.	.	16cc#\LL	-num
.	.	.	.	.	.	.	.	.	16dd\JJ	.
8AA/	.	8cc#\	.	8ee\	.	.	.	.	4ee\	.
8AA/	.	8cc#\	.	8ee\	.	.	.	.	.	.
8AA/J	.	8cc#\J	.	8ee\J	.	.	.	.	8cc#\	nos
=156	=156	=156	=156	=156	=156	=156	=156	=156	=156	=156
8C#/L	.	8a/L	.	8ee\L	.	2ryy	.	.	4a\	li-
8C#/	.	8a/	.	8ee\	.	.	.	.	.	.
8C#/	.	8gn/	.	8ee\	.	.	.	.	4gn/	-be-
8C#/J	.	8g/J	.	8ee\J	.	.	.	.	.	.
=157	=157	=157	=157	=157	=157	=157	=157	=157	=157	=157
.	.	.	.	.	.	.	.	.	8qqg#/	.
8D/L	.	8f#/L	.	8a\L	.	2ryy	.	.	4f#/	-ras
8D/	.	8a/	.	8ff#\	.	.	.	.	.	.
8D/	.	8a/	.	8ff#\	.	.	.	.	8r	.
8D/J	.	8a/J	.	8ff#\J	.	.	.	.	16g#X\	Vir-
.	.	.	.	.	.	.	.	.	16a\	-go
=158	=158	=158	=158	=158	=158	=158	=158	=158	=158	=158
8D/L	.	8b/L	.	8ff#\L	.	2ryy	.	.	16b\LL	gau-
.	.	.	.	.	.	.	.	.	16cc#\	.
8D/	.	8b/	.	8ff#\	.	.	.	.	16dd\	.
.	.	.	.	.	.	.	.	.	16cc#\JJ	.
8D/	.	8b/	.	8ff#\	.	.	.	.	8b\L	.
8D/J	.	8b/J	.	8ff#\J	.	.	.	.	8a\J	.
=159	=159	=159	=159	=159	=159	=159	=159	=159	=159	=159
.	.	.	.	.	.	.	.	.	8qqa/	.
8E\L	.	8g#/L	.	8b\L	.	2ryy	.	.	8g#/L	.
8E\	.	8g#/	.	8b\	.	.	.	.	16f#/L	.
.	.	.	.	.	.	.	.	.	16e/JJ	.
8E\	.	8b/	.	8ee\	.	.	.	.	4ee\	.
8E\J	.	8b/J	.	8ee\J	.	.	.	.	.	.
=160	=160	=160	=160	=160	=160	=160	=160	=160	=160	=160
.	.	.	.	.	.	.	.	.	8qqee/	.
8E\L	.	8b/L	.	8dd\L	.	2ryy	.	.	8dd\L	.
8E\	.	8b/	.	8dd\	.	.	.	.	16cc#\L	.
.	.	.	.	.	.	.	.	.	16b\JJ	.
.	.	.	.	.	.	.	.	.	8qqdd/	.
8E\	.	8a/	.	8cc#\	.	.	.	.	8cc#\L	.
8E\J	.	8a/J	.	8cc#\J	.	.	.	.	16b\L	.
.	.	.	.	.	.	.	.	.	16a\JJ	.
=161	=161	=161	=161	=161	=161	=161	=161	=161	=161	=161
.	.	.	.	.	.	.	.	.	8qqa/	.
8E\L	.	8g#/L	.	8b\L	.	2ryy	.	.	8g#/L	.
8E\	.	8g#/	.	8b\	.	.	.	.	16f#/L	.
.	.	.	.	.	.	.	.	.	16e/JJ	.
8E\	.	8cc#/	.	8ee\	.	.	.	.	4ee\	.
8E\J	.	8cc#/J	.	8ee\J	.	.	.	.	.	.
=162	=162	=162	=162	=162	=162	=162	=162	=162	=162	=162
.	.	.	.	.	.	.	.	.	8qqee/	.
8E\L	.	8b/L	.	8dd\L	.	2ryy	.	.	8dd\L	.
8E\	.	8b/	.	8dd\	.	.	.	.	16cc#\L	.
.	.	.	.	.	.	.	.	.	16b\JJ	.
.	.	.	.	.	.	.	.	.	8qqdd/	.
8E\	.	8a/	.	8cc#\	.	.	.	.	8cc#\L	.
8E\J	.	8a/J	.	8cc#\J	.	.	.	.	16b\L	.
.	.	.	.	.	.	.	.	.	16a\JJ	.
=163	=163	=163	=163	=163	=163	=163	=163	=163	=163	=163
8E\	.	8g#/	.	8b\	.	2ryy	.	.	16g#/LL	.
.	.	.	.	.	.	.	.	.	16e/	.
8r	.	8r	.	8r	.	.	.	.	16f#/	.
.	.	.	.	.	.	.	.	.	16g#/JJ	.
4r	.	4r	.	4r	.	.	.	.	16a\LL	.
.	.	.	.	.	.	.	.	.	16b\	.
.	.	.	.	.	.	.	.	.	16cc#\	.
.	.	.	.	.	.	.	.	.	16dd#X\JJ	.
=164	=164	=164	=164	=164	=164	=164	=164	=164	=164	=164
8E\L	.	8g#/L	.	8ee\L	.	2ryy	.	.	16ee\LL	.
.	.	.	.	.	.	.	.	.	16dd#X\	.
8F#\	.	8a/	.	8ee\	.	.	.	.	16ee\	.
.	.	.	.	.	.	.	.	.	16dd#\JJ	.
!	!	!	!	!	!	!	!	!	!LO:LB:g=original	!
8G#\	.	8b/	.	8ee\	.	.	.	.	16ee\LL	.
.	.	.	.	.	.	.	.	.	16dd#X\	.
8F#\J	.	8a/J	.	8ee\J	.	.	.	.	16ee\	.
.	.	.	.	.	.	.	.	.	16dd#\JJ	.
=165	=165	=165	=165	=165	=165	=165	=165	=165	=165	=165
!	!	!	!	!	!	!	!	!	!LO:TX:a:t=P:problem=mixed beam	!
4E\	.	8g#/	.	8ee\	.	2ryy	.	.	16ee\LL	.
.	.	.	.	.	.	.	.	.	16e/	.
.	.	8r	.	8r	.	.	.	.	16f#/	.
.	.	.	.	.	.	.	.	.	16g#/JJ	.
4r	.	4r	.	4r	.	.	.	.	16a\LL	.
.	.	.	.	.	.	.	.	.	16b\	.
.	.	.	.	.	.	.	.	.	16cc#\	.
.	.	.	.	.	.	.	.	.	16dd#X\JJ	.
!	!	!	!	!LO:LB:g=original	!	!	!	!	!	!
=166	=166	=166	=166	=166	=166	=166	=166	=166	=166	=166
8E\L	.	8g#/L	.	8g#/L	.	2ryy	.	.	16ee\LL	.
.	.	.	.	.	.	.	.	.	16dd#X\	.
8F#\	.	8a/	.	8a/	.	.	.	.	16ee\	.
.	.	.	.	.	.	.	.	.	16dd#\JJ	.
8G#\	.	8b/	.	8b/	.	.	.	.	16ee\LL	.
.	.	.	.	.	.	.	.	.	16dd#\	.
8F#\J	.	8a/J	.	8a/J	.	.	.	.	16ee\	.
.	.	.	.	.	.	.	.	.	16dd#\JJ	.
=167	=167	=167	=167	=167	=167	=167	=167	=167	=167	=167
8E\	.	8g#/	.	8g#/	.	2ryy	.	.	16ee\LL	.
.	.	.	.	.	.	.	.	.	16dd#X\	.
8r	.	8r	.	8r	.	.	.	.	16cc#\	.
.	.	.	.	.	.	.	.	.	16b\JJ	.
4r	.	4r	.	4r	.	.	.	.	16a/LL	.
.	.	.	.	.	.	.	.	.	16g#/	.
.	.	.	.	.	.	.	.	.	16f#/	.
.	.	.	.	.	.	.	.	.	16e/JJ	.
!LO:LB:g=original	!	!LO:LB:g=original	!	!	!	!	!	!	!	!
=168	=168	=168	=168	=168	=168	=168	=168	=168	=168	=168
8E\L	.	8b\L	.	8ddn\L	.	2ryy	.	.	16ddn\LL	.
.	.	.	.	.	.	.	.	.	16cc#\	.
8E\	.	8b\	.	8dd\J	.	.	.	.	16dd\	.
.	.	.	.	.	.	.	.	.	16cc#\JJ	.
8E\	.	8b\	.	16dd\LL	.	.	.	.	8dd\	.
.	.	.	.	16cc#\	.	.	.	.	.	.
8E\J	.	8b\J	.	16dd\	.	.	.	.	8r	.
.	.	.	.	16cc#\JJ	.	.	.	.	.	.
=169	=169	=169	=169	=169	=169	=169	=169	=169	=169	=169
8E\L	.	8b\	.	8dd\	.	2ryy	.	.	8r	.
8E\	.	8r	.	8r	.	.	.	.	16dd\LL	.
.	.	.	.	.	.	.	.	.	16ee\JJ	.
8E\	.	8dd\	.	8bb\	.	.	.	.	16ff#\LL	.
.	.	.	.	.	.	.	.	.	16dd\	.
8E\J	.	8r	.	8r	.	.	.	.	16cc#\	.
.	.	.	.	.	.	.	.	.	16b\JJ	.
=170	=170	=170	=170	=170	=170	=170	=170	=170	=170	=170
8E\L	.	8a\L	.	8cc#\L	.	2ryy	.	.	16cc#\LL	.
.	.	.	.	.	.	.	.	.	16b\	.
8E\	.	8a\	.	8cc#\J	.	.	.	.	16cc#\	.
.	.	.	.	.	.	.	.	.	16b\JJ	.
8E\	.	8a\	.	16cc#\LL	.	.	.	.	8cc#\	.
.	.	.	.	16b\	.	.	.	.	.	.
8E\J	.	8a\J	.	16cc#\	.	.	.	.	8r	.
.	.	.	.	16b\JJ	.	.	.	.	.	.
=171	=171	=171	=171	=171	=171	=171	=171	=171	=171	=171
8E\L	.	8a\	.	8cc#\	.	2ryy	.	.	8r	.
8E\	.	8r	.	8r	.	.	.	.	16cc#\LL	.
.	.	.	.	.	.	.	.	.	16dd\JJ	.
8E\	.	8cc#\	.	8aa\	.	.	.	.	16ee\LL	.
.	.	.	.	.	.	.	.	.	16cc#\	.
8E\J	.	8r	.	8r	.	.	.	.	16b\	.
.	.	.	.	.	.	.	.	.	16a\JJ	.
=172	=172	=172	=172	=172	=172	=172	=172	=172	=172	=172
8D#X/L	.	8a\L	.	8ccn\L	.	2ryy	.	.	16ccn\LL	.
.	.	.	.	.	.	.	.	.	16b\	.
8D#/	.	8a\	.	8cc\J	.	.	.	.	16cc\	.
.	.	.	.	.	.	.	.	.	16b\JJ	.
8D#/	.	8a\	.	16cc\LL	.	.	.	.	8cc\	.
.	.	.	.	16b\	.	.	.	.	.	.
8D#/J	.	8a\J	.	16cc\	.	.	.	.	8r	.
.	.	.	.	16b\JJ	.	.	.	.	.	.
!	!	!	!	!	!	!	!	!	!LO:LB:g=original	!
=173	=173	=173	=173	=173	=173	=173	=173	=173	=173	=173
8D#X/L	.	8a/	.	8ccn\	.	2ryy	.	.	8r	.
8D#/	.	8r	.	8r	.	.	.	.	16ccn\LL	.
.	.	.	.	.	.	.	.	.	16dd\JJ	.
8D#/	.	8ccn\	.	8aa\	.	.	.	.	16ee\LL	.
.	.	.	.	.	.	.	.	.	16cc\	.
8D#/J	.	8r	.	8r	.	.	.	.	16b\	.
.	.	.	.	.	.	.	.	.	16a\JJ	.
=174	=174	=174	=174	=174	=174	=174	=174	=174	=174	=174
8E\L	.	8e/L	.	8g#/L	.	2ryy	.	.	16g#\LL	.
.	.	.	.	.	.	.	.	.	16a\	.
8E\	.	8g#/	.	8b/	.	.	.	.	16b\	.
.	.	.	.	.	.	.	.	.	16cc#\JJ	.
8E\	.	8g#/	.	8b/	.	.	.	.	8b\	.
8E\J	.	8g#/J	.	8b/J	.	.	.	.	8r	.
=175	=175	=175	=175	=175	=175	=175	=175	=175	=175	=175
8E\L	.	8e/L	.	8a\L	.	2ryy	.	.	16a\LL	.
.	.	.	.	.	.	.	.	.	16b\	.
8E\	.	8a/	.	8cc#X\	.	.	.	.	16cc#X\	.
.	.	.	.	.	.	.	.	.	16dd\JJ	.
8E\	.	8a/	.	8cc#\	.	.	.	.	8cc#\	.
8E\J	.	8a/J	.	8cc#\J	.	.	.	.	8r	.
=176	=176	=176	=176	=176	=176	=176	=176	=176	=176	=176
8E\L	.	8e/L	.	8b\L	.	2ryy	.	.	16b\LL	.
.	.	.	.	.	.	.	.	.	16cc#\	.
8E\	.	8b/	.	8dd\	.	.	.	.	16dd\	.
.	.	.	.	.	.	.	.	.	16ee\JJ	.
8E\	.	8b/	.	8dd\	.	.	.	.	8dd\	.
8E\J	.	8b/J	.	8dd\J	.	.	.	.	8r	.
=177	=177	=177	=177	=177	=177	=177	=177	=177	=177	=177
8E\L	.	8e/L	.	8cc#\L	.	2ryy	.	.	16cc#\LL	.
.	.	.	.	.	.	.	.	.	16dd\	.
8E\	.	8cc#/	.	8ee\	.	.	.	.	16ee\	.
.	.	.	.	.	.	.	.	.	16dd\JJ	.
8E\	.	8cc#/	.	8ee\	.	.	.	.	16ee\LL	.
.	.	.	.	.	.	.	.	.	16cc#\	.
8E\J	.	8cc#/J	.	8ee\J	.	.	.	.	16b\	.
.	.	.	.	.	.	.	.	.	16a\JJ	.
=178	=178	=178	=178	=178	=178	=178	=178	=178	=178	=178
*	*	*	*	*^	*	*	*	*	*	*
8E\	.	8g#/	.	8ee/	8b\	.	2ryy	.	.	16g#\LL	.
.	.	.	.	.	.	.	.	.	.	16e\	.
8r	.	8r	.	8r	4.ryy	.	.	.	.	16ee\	.
.	.	.	.	.	.	.	.	.	.	16b\JJ	.
4r	.	4r	.	4r	.	.	.	.	.	16g#\LL	.
.	.	.	.	.	.	.	.	.	.	16e\	.
.	.	.	.	.	.	.	.	.	.	16ee\	.
.	.	.	.	.	.	.	.	.	.	16b\JJ	.
*	*	*	*	*v	*v	*	*	*	*	*	*
=179	=179	=179	=179	=179	=179	=179	=179	=179	=179	=179
8E\	.	8g#/	.	8b/	.	2ryy	.	.	16g#\LL	.
.	.	.	.	.	.	.	.	.	16e\	.
8r	.	8r	.	8r	.	.	.	.	16ee\	.
.	.	.	.	.	.	.	.	.	16b\JJ	.
8r	.	8r	.	8r	.	.	.	.	16g#\LL	.
.	.	.	.	.	.	.	.	.	16e\	.
8E\	.	8b\	.	8dd\	.	.	.	.	16ee\	.
.	.	.	.	.	.	.	.	.	16b\JJ	.
!LO:LB:g=original	!	!	!	!	!	!	!	!	!	!
=180	=180	=180	=180	=180	=180	=180	=180	=180	=180	=180
8A\L	.	8a\L	.	8cc#\L	.	2ryy	.	.	16cc#\LL	.
.	.	.	.	.	.	.	.	.	16a\	.
8D\	.	8dd\	.	8ff#\	.	.	.	.	16ff#\	.
.	.	.	.	.	.	.	.	.	16dd\JJ	.
8D\	.	8cc#\	.	8ee\	.	.	.	.	16ee\LL	.
.	.	.	.	.	.	.	.	.	16cc#\	.
8D\J	.	8b\J	.	8dd\J	.	.	.	.	16dd\	.
.	.	.	.	.	.	.	.	.	16b\JJ	.
!	!	!LO:LB:g=original	!	!LO:LB:g=original	!	!	!	!	!	!
=181	=181	=181	=181	=181	=181	=181	=181	=181	=181	=181
8E\L	.	4a/	.	4cc#\|	.	2ryy	.	.	4a\	.
8E\	.	.	.	.	.	.	.	.	.	.
8E\	.	4g#/	.	4b\|	.	.	.	.	4b\	.
8E\J	.	.	.	.	.	.	.	.	.	.
!	!	!	!	!	!	!	!	!	!LO:LB:g=original	!
=182	=182	=182	=182	=182	=182	=182	=182	=182	=182	=182
!	!	!	!	!LO:TX:a:t=P:problem=mixed beam	!	!	!	!	!	!
8A\	.	8a/	.	8a/L	.	2ryy	.	.	4a\	-de
8r	.	16aa\LL	.	16aa\L	.	.	.	.	.	.
.	.	16ff#\JJ	.	16ff#\JJ	.	.	.	.	.	.
8B\	.	8cc#\	.	8dd\	.	.	.	.	8r	.
8r	.	16a/LL	.	16a\LL	.	.	.	.	8a\	quod
.	.	16g#/JJ	.	16g#\JJ	.	.	.	.	.	.
=183	=183	=183	=183	=183	=183	=183	=183	=183	=183	=183
!	!	!	!	!LO:TX:a:t=P:problem=mixed beam	!	!	!	!	!	!
4G#\	.	8e/L	.	8e/L	.	2ryy	.	.	8d/	de
.	.	8b/	.	8dd\	.	.	.	.	8dd\	frau-
4r	.	8a/	.	8cc#\	.	.	.	.	8cc#\	-de
.	.	8g#/J	.	8b\J	.	.	.	.	8b\	Dae-
=184	=184	=184	=184	=184	=184	=184	=184	=184	=184	=184
8A\	.	8a/	.	8cc#\|	.	2ryy	.	.	16cc#\	-mo-
.	.	.	.	.	.	.	.	.	16b\	.
8r	.	16aa\LL	.	16aa\LL	.	.	.	.	8a\	-num
.	.	16ff#\JJ	.	16ff#\JJ	.	.	.	.	.	.
8B\	.	8dd\	.	8dd\	.	.	.	.	8r	.
8r	.	16b\LL	.	16b\LL	.	.	.	.	8b\	gau-
.	.	16g#\JJ	.	16g#\JJ	.	.	.	.	.	.
=185	=185	=185	=185	=185	=185	=185	=185	=185	=185	=185
!	!	!	!	!LO:TX:a:t=P:problem=mixed beam	!	!	!	!	!	!
8G#\L	.	8e/L	.	8e/L	p	2ryy	.	.	8e/	-de
8G#\	.	8b/	.	8dd\	.	.	.	.	8dd\	Vir-
8G#\	.	8b/	.	8dd\	.	.	.	.	4dd\	-go
8G#\J	.	8b/J	.	8dd\J	.	.	.	.	.	.
=186	=186	=186	=186	=186	=186	=186	=186	=186	=186	=186
8G#\L	.	8b/L	.	8dd\L	.	2ryy	.	.	8dd\L	gau-
8G#\	.	8b/	.	8dd\	.	.	.	.	16cc#\L	.
.	.	.	.	.	.	.	.	.	16b\JJ	.
.	.	.	.	.	.	.	.	.	8qqdd/	.
8A\	.	8a/	.	8cc#\	.	.	.	.	8cc#\L	.
8A\J	.	8a/J	.	8cc#\J	.	.	.	.	16b\L	.
.	.	.	.	.	.	.	.	.	16a\JJ	.
=187	=187	=187	=187	=187	=187	=187	=187	=187	=187	=187
4E\	.	8g#/	.	8b\	.	2ryy	.	.	4ee\	-de
.	.	8r	.	8r	.	.	.	.	.	.
4r	.	4r	.	4r	.	.	.	.	4e/	.
=188	=188	=188	=188	=188	=188	=188	=188	=188	=188	=188
!LO:TX:a:t=1.	!	!	!	!	!	!	!	!	!	!
2r	.	2r	.	2r	.	2ryy	.	.	2r;	.
=189	=189	=189	=189	=189	=189	=189	=189	=189	=189	=189
!LO:TX:a:t=P:problem=mixed beam	!	!	!	!LO:SIC:o:s=:v:repetycja 2 taktów	!	!	!	!	!	!
8E\L	.	16b\LL	.	16dd\LL	.	2ryy	.	.	4dd\	quod
.	.	16b\	.	16dd\	.	.	.	.	.	.
8EE/	.	16gg#\	.	16bb\	.	.	.	.	.	.
.	.	16gg#\JJ	.	16bb\JJ	.	.	.	.	.	.
8E\	.	16b\LL	.	16dd\LL	.	.	.	.	4b\	de
.	.	16b\	.	16dd\	.	.	.	.	.	.
8EE/J	.	16gg#\	.	16bb\	.	.	.	.	.	.
.	.	16gg#\JJ	.	16bb\JJ	.	.	.	.	.	.
=190	=190	=190	=190	=190	=190	=190	=190	=190	=190	=190
!LO:TX:a:t=P:problem=mixed beam	!	!	!	!LO:TX:a:t=bis	!	!	!	!	!	!
8E\L	.	16a\LL	.	16cc#\LL	.	2ryy	.	.	32cc#\LLL	frau-
.	.	.	.	.	.	.	.	.	32b\JJ	.
.	.	16a\	.	16cc#\	.	.	.	.	8.a\J	.
8EE/	.	16ee\	.	16aa\	.	.	.	.	.	.
.	.	16ee\JJ	.	16aa\JJ	.	.	.	.	.	.
8E\	.	16a\LL	.	16cc#\LL	.	.	.	.	4ee\	-de
.	.	16a\	.	16cc#\	.	.	.	.	.	.
8EE/J	.	16ee\	.	16aa\	.	.	.	.	.	.
.	.	16ee\JJ	.	16aa\JJ	.	.	.	.	.	.
=191	=191	=191	=191	=191	=191	=191	=191	=191	=191	=191
!LO:TX:a:t=P:problem=mixed beam	!	!	!	!LO:SIC:o:s=:v:takty powtó©zone repetycją	!	!	!	!	!	!
8E\L	.	16b\LL	.	16dd\LLyy	.	2ryy	.	.	4dd\	quod
.	.	16b\	.	16dd\yy	.	.	.	.	.	.
8EE/	.	16gg#\	.	16bb\yy	.	.	.	.	.	.
.	.	16gg#\JJ	.	16bb\JJyy	.	.	.	.	.	.
8E\	.	16b\LL	.	16dd\LLyy	.	.	.	.	4b\	de
.	.	16b\	.	16dd\yy	.	.	.	.	.	.
8EE/J	.	16gg#\	.	16bb\yy	.	.	.	.	.	.
.	.	16gg#\JJ	.	16bb\JJyy	.	.	.	.	.	.
=192	=192	=192	=192	=192	=192	=192	=192	=192	=192	=192
!LO:TX:a:t=P:problem=mixed beam	!	!	!	!	!	!	!	!	!	!
8E\L	.	16a\LL	.	16cc#\LLyy	.	2ryy	.	.	32cc#\LLL	frau-
.	.	.	.	.	.	.	.	.	32b\JJ	.
.	.	16a\	.	16cc#\yy	.	.	.	.	8.a\J	.
8EE/	.	16ee\	.	16aa\yy	.	.	.	.	.	.
.	.	16ee\JJ	.	16aa\JJyy	.	.	.	.	.	.
8E\	.	16a\LL	.	16cc#\LLyy	.	.	.	.	4ee\	-de
.	.	16a\	.	16cc#\yy	.	.	.	.	.	.
8EE/J	.	16ee\	.	16aa\yy	.	.	.	.	.	.
.	.	16ee\JJ	.	16aa\JJyy	.	.	.	.	.	.
!	!	!	!LO:LB:g=original	!	!	!	!	!	!LO:LB:g=original	!
=193	=193	=193	=193	=193	=193	=193	=193	=193	=193	=193
!LO:TX:a:t=P:problem=mixed beam	!	!	!	!	!	!	!	!	!	!
8E\L	.	16b\LL	.	16dd\LL	.	2ryy	.	.	4r	.
.	.	16b\	.	16dd\	.	.	.	.	.	.
8EE/	.	16gg#\	.	16bb\	.	.	.	.	.	.
.	.	16gg#\JJ	.	16bb\JJ	.	.	.	.	.	.
8E\	.	16b\LL	.	16dd\LL	.	.	.	.	8dd\	Dae-
.	.	16b\	.	16dd\	.	.	.	.	.	.
8EE/J	.	16gg#\	.	16bb\	.	.	.	.	8b\	-mo-
.	.	16gg#\JJ	.	16bb\JJ	.	.	.	.	.	.
=194	=194	=194	=194	=194	=194	=194	=194	=194	=194	=194
8A\L	.	8a/	.	8ee\	.	2ryy	.	.	8cc#\	-num
8D\	.	4dd\	.	4ff#\	.	.	.	.	4ff#\	.
8D\	.	.	.	.	.	.	.	.	.	.
8D\J	.	16cc#\LL	.	16ee\LL	.	.	.	.	16ee\LL	nos
.	.	16b\JJ	.	16dd\JJ	.	.	.	.	16dd\JJ	.
=195	=195	=195	=195	=195	=195	=195	=195	=195	=195	=195
8E\L	.	4a/	.	4cc#\	.	2ryy	.	.	8cc#\L	li-
8E\	.	.	.	.	.	.	.	.	16b\L	.
.	.	.	.	.	.	.	.	.	16a\JJ	.
8E\	.	4g#/	.	4b\	.	.	.	.	4b\	-be-
8E\J	.	.	.	.	.	.	.	.	.	.
!	!	!	!	!LO:LB:g=original	!	!	!	!	!	!
=196	=196	=196	=196	=196	=196	=196	=196	=196	=196	=196
!	!	!	!	!LO:TX:a:t=P:problem=mixed beam	!	!	!	!	!	!
8F#\L	.	8a\L	.	8a/L	.	2ryy	.	.	4a\	-ras
8D\	.	8ff#\J	.	8aa\J	.	.	.	.	.	.
8D\	.	16ee\LL	.	16gg#\LL	.	.	.	.	8r	.
.	.	16dd\	.	16ff#\	.	.	.	.	.	.
8D\J	.	16cc#\	.	16ee\	.	.	.	.	8a\	nos
.	.	16b\JJ	.	16dd\JJ	.	.	.	.	.	.
=197	=197	=197	=197	=197	=197	=197	=197	=197	=197	=197
4E\	.	4a/	.	4cc#\	.	2ryy	.	.	4a\	li-
4E\	.	4g#/	.	4b\	.	.	.	.	4b\	-be-
=198	=198	=198	=198	=198	=198	=198	=198	=198	=198	=198
8AA/L	.	4e/	.	4a\	.	2ryy	.	.	4a;\	-ras
8AA/	.	.	.	.	.	.	.	.	.	.
8AA/	.	4g#/	.	4b\	.	.	.	.	4r	.
8AA/J	.	.	.	.	.	.	.	.	.	.
=199	=199	=199	=199	=199	=199	=199	=199	=199	=199	=199
!	!	!	!	!	!	!	!	!	!LO:N:vis=00	!
8AA/L	.	16a\LL	.	16cc#\LL	.	2ryy	.	.	0r	.
.	.	16b\JJ	.	16dd\JJ	.	.	.	.	.	.
8AA/	.	4cc#\	.	4ee\	.	.	.	.	.	.
8AA/	.	.	.	.	.	.	.	.	.	.
8AA/J	.	8e/	.	8e/	.	.	.	.	.	.
=200	=200	=200	=200	=200	=200	=200	=200	=200	=200	=200
8AA/L	.	4e/|	.	4a/	f	2ryy	.	.	.	.
8AA/	.	.	.	.	.	.	.	.	.	.
8AA/	.	4g#/|	.	4b/	.	.	.	.	.	.
8AA/J	.	.	.	.	.	.	.	.	.	.
=201	=201	=201	=201	=201	=201	=201	=201	=201	=201	=201
4AA/	.	8a/	.	8cc#\	.	2ryy	.	.	.	.
.	.	16e/LL	.	16e/LL	.	.	.	.	.	.
.	.	16c#/JJ	.	16c#/JJ	.	.	.	.	.	.
4r	.	8A/	.	8A/	.	.	.	.	.	.
.	.	16e/LL	.	16e/LL	.	.	.	.	.	.
.	.	16c#/JJ	.	16c#/JJ	.	.	.	.	.	.
=202	=202	=202	=202	=202	=202	=202	=202	=202	=202	=202
8r	.	8A/	.	8A/	.	2ryy	.	.	.	.
8AA/L	.	(8ff#\L	.	(8aa\L	.	.	.	.	.	.
8AA/	.	8ee\	.	8gg#\	.	.	.	.	.	.
8AA/J	.	8dd\J)	.	8ff#\J)	.	.	.	.	.	.
=203	=203	=203	=203	=203	=203	=203	=203	=203	=203	=203
!	!	!	!	!	!	!	!	!	!LO:N:vis=00	!
4AA/	.	8cc#\	.	8ee\	.	2ryy	.	.	0r	.
.	.	16e/LL	.	16e/LL	.	.	.	.	.	.
.	.	16c#/JJ	.	16c#/JJ	.	.	.	.	.	.
4r	.	8A/	.	8A/	.	.	.	.	.	.
.	.	16e/LL	.	16e/LL	.	.	.	.	.	.
.	.	16c#/JJ	.	16c#/JJ	.	.	.	.	.	.
=204	=204	=204	=204	=204	=204	=204	=204	=204	=204	=204
8r	.	8A/	.	8A/	.	2ryy	.	.	.	.
8AA/L	.	8dd\L	.	(8ff#\L	.	.	.	.	.	.
8AA/	.	8cc#\	.	8ee\	.	.	.	.	.	.
8AA/J	.	8b\J	.	8dd\J)	.	.	.	.	.	.
!	!	!LO:LB:g=original	!	!	!	!	!	!	!	!
=205	=205	=205	=205	=205	=205	=205	=205	=205	=205	=205
4AA/	.	8a/	.	8cc#\	.	2ryy	.	.	.	.
.	.	16e/LL	.	16e/LL	.	.	.	.	.	.
.	.	16c#/JJ	.	16c#/JJ	.	.	.	.	.	.
4r	.	8A/	.	8A/	.	.	.	.	.	.
.	.	16a/LL	.	16a/LL	.	.	.	.	.	.
.	.	16f#/JJ	.	16f#/JJ	.	.	.	.	.	.
=206	=206	=206	=206	=206	=206	=206	=206	=206	=206	=206
8D/	.	8d/	.	8d/	.	2ryy	.	.	.	.
8r	.	16b/LL	.	16b/LL	.	.	.	.	.	.
.	.	16g#/JJ	.	16g#/JJ	.	.	.	.	.	.
8E\	.	8e/	.	8e/	.	.	.	.	.	.
8r	.	16ee\LL	.	16ee\LL	.	.	.	.	.	.
.	.	16cc#\JJ	.	16cc#\JJ	.	.	.	.	.	.
!LO:LB:g=original	!	!	!	!LO:LB:g=original	!	!	!	!	!	!
=207	=207	=207	=207	=207	=207	=207	=207	=207	=207	=207
!	!	!	!	!	!	!	!	!	!LO:N:vis=00	!
8A\	.	8a/	.	8a/	.	2ryy	.	.	0r	.
8r	.	16aa\LL	.	16aa\LL	.	.	.	.	.	.
.	.	16ff#\JJ	.	16ff#\JJ	.	.	.	.	.	.
8B\	.	8dd\	.	8dd\	.	.	.	.	.	.
8r	.	16b/LL	.	16b\LL	.	.	.	.	.	.
.	.	16g#/JJ	.	16g#\JJ	.	.	.	.	.	.
=208	=208	=208	=208	=208	=208	=208	=208	=208	=208	=208
!	!	!LO:TX:a:t=P:problem=mixed beam	!	!LO:TX:a:t=P:problem=mixed beam	!	!	!	!	!	!
8G#\L	.	16e/LL	.	16e/LL	.	2ryy	.	.	.	.
.	.	16dd\	.	16dd\	.	.	.	.	.	.
8A\	.	16cc#\	.	16cc#\	.	.	.	.	.	.
.	.	16b\JJ	.	16b\JJ	.	.	.	.	.	.
8D\	.	8f#/L	.	8f#/L	.	.	.	.	.	.
8E\J	.	8g#/J	.	8g#/J	.	.	.	.	.	.
=209	=209	=209	=209	=209	=209	=209	=209	=209	=209	=209
8A\	.	8a/	.	8a/	.	2ryy	.	.	.	.
8r	.	16aa`\LL	.	16aa\LL	.	.	.	.	.	.
.	.	16ff#`\JJ	.	16ff#\JJ	.	.	.	.	.	.
8B\	.	8dd\L|	.	8dd\	.	.	.	.	.	.
8r	.	16b\L	.	16b\LL	.	.	.	.	.	.
.	.	16g#\JJ	.	16g#\JJ	.	.	.	.	.	.
=210	=210	=210	=210	=210	=210	=210	=210	=210	=210	=210
!	!	!LO:TX:a:t=P:problem=mixed beam	!	!LO:TX:a:t=P:problem=mixed beam	!	!	!	!	!	!
8G#\L	.	16e/LL	.	16e/LL	.	2ryy	.	.	.	.
.	.	16dd\	.	16dd\	.	.	.	.	.	.
8A\	.	16cc#\	.	16cc#\	.	.	.	.	.	.
.	.	16b\JJ	.	16b\JJ	.	.	.	.	.	.
8D\	.	8f#/L	.	8f#/L	.	.	.	.	.	.
8E\J	.	8g#/J	.	8g#/J	.	.	.	.	.	.
=211	=211	=211	=211	=211	=211	=211	=211	=211	=211	=211
4AA;/	.	8a;</L	.	8a/L	.	2ryy	.	.	2r	.
.	.	8A/J	.	8A/J	.	.	.	.	.	.
4r	.	4r	.	4r	.	.	.	.	.	.
=212||	=212||	=212||	=212||	=212||	=212||	=212||	=212||	=212||	=212||	=212||
*k[]	*	*k[]	*	*k[]	*	*	*	*	*k[]	*
8A\L	.	8cc\	p	8cc\	p	2ryy	.	.	8cc\	dum
8A\	.	4cc\	.	4cc\	.	.	.	.	4cc\	in
8A\	.	.	.	.	.	.	.	.	.	.
8A\J	.	8ee\	.	8ee\	.	.	.	.	8ee\	.
!	!	!LO:LB:g=original	!	!	!	!	!	!	!	!
=213	=213	=213	=213	=213	=213	=213	=213	=213	=213	=213
8G\L	.	8b\	.	8b\	.	2ryy	.	.	8b\	ve-
8G\	.	4b\	.	4b\	.	.	.	.	4b\	-ra
8G\	.	.	.	.	.	.	.	.	.	.
8G\J	.	8ee\	.	8ee\	.	.	.	.	8ee\	.
=214	=214	=214	=214	=214	=214	=214	=214	=214	=214	=214
8F\L	.	8a/	.	8a\	.	2ryy	.	.	[8a\	et
8F\	.	4a/	.	4a\	.	.	.	.	4a\]	.
8F\	.	.	.	.	.	.	.	.	.	.
8F\J	.	8ff\	.	8ff\	.	.	.	.	8ff\	Sin-
=215	=215	=215	=215	=215	=215	=215	=215	=215	=215	=215
!	!	!	!	!LO:N:vis=24	!	!	!	!	!	!
8E\L	.	16g#X/LL	.	12g#X/L	.	2ryy	.	.	16g/LL	-ce-
.	.	16f#X/J	.	.	.	.	.	.	16f#X/JJ	.
!	!	!	!	!LO:N:vis=24	!	!	!	!	!	!
.	.	.	.	12f#X/	.	.	.	.	.	.
8E\J	.	8e/J	.	.	.	.	.	.	8e/	-ra
!	!	!	!	!LO:N:vis=24	!	!	!	!	!	!
.	.	.	.	12e/J	.	.	.	.	.	.
16E\LL	.	16e/LL	.	16e/LL	.	.	.	.	4r	.
16D\	.	16d/	.	16d/	.	.	.	.	.	.
16C\	.	16c/	.	16c/	.	.	.	.	.	.
16BB\JJ	.	16B/JJ	.	16B/JJ	.	.	.	.	.	.
!	!	!	!	!LO:LB:g=original	!	!	!	!	!LO:LB:g=original	!
=216	=216	=216	=216	=216	=216	=216	=216	=216	=216	=216
8AA/L	.	4A/|	.	4A/|	.	2ryy	.	.	4a\	Dum
8AA/	.	.	.	.	.	.	.	.	.	.
8AA/	.	4b\|	.	4b\|	.	.	.	.	4b\	in
8AA/J	.	.	.	.	.	.	.	.	.	.
=217	=217	=217	=217	=217	=217	=217	=217	=217	=217	=217
4AA/	.	8cc\	.	8cc\	.	2ryy	.	.	16cc\LL	Ve-
.	.	.	.	.	.	.	.	.	16b\JJ	.
.	.	16e/LL	.	16e/LL	.	.	.	.	8a\	-ra
.	.	16c/JJ	.	16c/JJ	.	.	.	.	.	.
4r	.	8A/	.	8A/	.	.	.	.	4r	.
.	.	16e/LL	.	16e/LL	.	.	.	.	.	.
.	.	16c/JJ	.	16c/JJ	.	.	.	.	.	.
=218	=218	=218	=218	=218	=218	=218	=218	=218	=218	=218
8r	.	8A/	.	8A/	.	2ryy	.	.	8r	.
8D\L	.	(8dd\L	.	8ff\L	.	.	.	.	8ff\L	et
8E\	.	8cc\	.	8ee\	.	.	.	.	8ee\J	.
8E\J	.	8b\J)	.	8dd\J	.	.	.	.	8dd\	Sin-
!LO:LB:g=original	!	!	!	!	!	!	!	!	!	!
=219	=219	=219	=219	=219	=219	=219	=219	=219	=219	=219
4A\	.	8a\	.	8cc\	.	2ryy	.	.	16cc\LL	-ce-
.	.	.	.	.	.	.	.	.	16b\JJ	.
.	.	16aa\LL	.	16aa\LL	.	.	.	.	8a\	-ra
.	.	16ee\JJ	.	16ee\JJ	.	.	.	.	.	.
4r	.	8cc`\	.	8cc\	.	.	.	.	8r	.
.	.	16ee\LL	.	16ee\LL	.	.	.	.	8r	.
.	.	16cc\JJ	.	16cc\JJ	.	.	.	.	.	.
=220	=220	=220	=220	=220	=220	=220	=220	=220	=220	=220
8AA/L	.	4a/	.	4a/	.	2ryy	.	.	4a\	dum
8AA/	.	.	.	.	.	.	.	.	.	.
8AA/	.	4g#X/	.	4b/	.	.	.	.	4b\	in
8AA/J	.	.	.	.	.	.	.	.	.	.
=221	=221	=221	=221	=221	=221	=221	=221	=221	=221	=221
4AA/	.	8a/	.	8cc\	.	2ryy	.	.	16cc\LL	Ve-
.	.	.	.	.	.	.	.	.	16b\JJ	.
.	.	16e/LL	.	16e/LL	.	.	.	.	8a\	-ra
.	.	16c/JJ	.	16c/JJ	.	.	.	.	.	.
4r	.	8A/	.	8A/L	.	.	.	.	4r	.
.	.	16e/LL	.	16e/L	.	.	.	.	.	.
.	.	16c/JJ	.	16c/JJ	.	.	.	.	.	.
=222	=222	=222	=222	=222	=222	=222	=222	=222	=222	=222
8r	.	8A/	.	8A/	.	2ryy	.	.	8r	.
8D\L	.	(8dd\L	.	8ff\L	.	.	.	.	8ff\L	et
8E\	.	8cc\	.	8ee\	.	.	.	.	8ee\J	.
8E\J	.	8b\J)	.	8dd\J	.	.	.	.	8dd\	Sin-
!	!	!LO:LB:g=original	!	!	!	!	!	!	!	!
=223	=223	=223	=223	=223	=223	=223	=223	=223	=223	=223
4A\	.	8a\|	.	8cc\	.	2ryy	.	.	16cc\LL	-ce-
.	.	.	.	.	.	.	.	.	16b\JJ	.
.	.	16aa\LL	.	16aa\LL	.	.	.	.	8a\	-ra
.	.	16ee\JJ	.	16ee\JJ	.	.	.	.	.	.
4r	.	8cc\|	.	8cc\	.	.	.	.	4r	.
.	.	16ee\LL	.	16ee\LL	.	.	.	.	.	.
.	.	16cc\JJ	.	16cc\JJ	.	.	.	.	.	.
=224	=224	=224	=224	=224	=224	=224	=224	=224	=224	=224
!	!	!LO:TX:a:t=P:problem=mixed beam	!	!LO:TX:a:t=P:problem=mixed beam	!	!	!	!	!	!
8A\L	.	16a/LL	f	16a/LL	.	2ryy	.	.	4cc\	dum
.	.	16a/	.	16a/	.	.	.	.	.	.
8A\	.	16aa\	.	16aa\	.	.	.	.	.	.
.	.	16aa\JJ	.	16aa\JJ	.	.	.	.	.	.
8A\	.	16a\LL	.	16cc\LL	.	.	.	.	4ff\	in
.	.	16a\	.	16cc\	.	.	.	.	.	.
8A\J	.	16ff\	.	16aa\	.	.	.	.	.	.
.	.	16ff\JJ	.	16aa\JJ	.	.	.	.	.	.
=225	=225	=225	=225	=225	=225	=225	=225	=225	=225	=225
8B\L	.	16g\LL	.	16b\LL	.	2ryy	.	.	(8g\L	Ve-
.	.	16g\	.	16b\	.	.	.	.	.	.
8B\	.	16dd\	.	16gg\	.	.	.	.	8b\J)	.
.	.	16dd\JJ	.	16gg\JJ	.	.	.	.	.	.
!	!	!	!	!LO:LB:g=original	!	!	!	!	!	!
8B\	.	16g\LL	.	16b\LL	.	.	.	.	4dd\	-ra
.	.	16g\	.	16b\	.	.	.	.	.	.
8B\J	.	16dd\	.	16gg\	.	.	.	.	.	.
.	.	16dd\JJ	.	16gg\JJ	.	.	.	.	.	.
=226	=226	=226	=226	=226	=226	=226	=226	=226	=226	=226
4BB/	.	8g\L	.	8g\L	.	2ryy	.	.	8r	.
.	.	8b\	.	8dd\	.	.	.	.	8dd\L	et
4r	.	8cc\	.	8ee\	.	.	.	.	8ee\J	.
.	.	8dd\J	.	8ff\J	.	.	.	.	8ff\	Sin-
!	!	!	!	!	!	!	!	!	!LO:LB:g=original	!
=227	=227	=227	=227	=227	=227	=227	=227	=227	=227	=227
4C/	.	8cc\|	.	8ee\|	.	2ryy	.	.	16ee\LL	-ce-
.	.	.	.	.	.	.	.	.	16dd\JJ	.
.	.	16g/LL	.	16g/LL	.	.	.	.	8cc\	-ra
.	.	16e/JJ	.	16e/JJ	.	.	.	.	.	.
4r	.	8c/	.	8c/	.	.	.	.	4r	.
.	.	16g/LL	.	16g/LL	.	.	.	.	.	.
.	.	16e/JJ	.	16e/JJ	.	.	.	.	.	.
=228	=228	=228	=228	=228	=228	=228	=228	=228	=228	=228
!	!	!LO:TX:a:t=P:problem=mixed beam	!	!LO:TX:a:t=P:problem=mixed beam	!	!	!	!	!	!
8E\L	.	16c/LL	.	16c/LL	.	2ryy	.	.	4r	.
.	.	16c/	.	16c/	.	.	.	.	.	.
8E\	.	16cc\	.	16gg\	.	.	.	.	.	.
.	.	16cc\JJ	.	16gg\JJ	.	.	.	.	.	.
8E\	.	16g\LL	.	16cc\LL	.	.	.	.	8.cc\	car-
.	.	16g\	.	16cc\	.	.	.	.	.	.
8E\J	.	16cc\	.	16gg\	.	.	.	.	.	.
.	.	16cc\JJ	.	16gg\JJ	.	.	.	.	16cc\	-ne
=229	=229	=229	=229	=229	=229	=229	=229	=229	=229	=229
8F\L	.	16a\LL	.	16cc\LL	.	2ryy	.	.	8cc\	De-
.	.	16a\	.	16cc\	.	.	.	.	.	.
8F\	.	16cc\	.	16aa\	.	.	.	.	8f/	-um
.	.	16cc\JJ	.	16aa\JJ	.	.	.	.	.	.
8F\	.	16a\LL	.	16cc\LL	.	.	.	.	8r	.
.	.	16a\	.	16cc\	.	.	.	.	.	.
8F\J	.	16cc\	.	16aa\	.	.	.	.	8ff\	ge-
.	.	16cc\JJ	.	16aa\JJ	.	.	.	.	.	.
=230	=230	=230	=230	=230	=230	=230	=230	=230	=230	=230
8G\L	.	4cc\	.	4ee\	.	2ryy	.	.	32ee\LLL	.
.	.	.	.	.	.	.	.	.	32dd\JJ	.
.	.	.	.	.	.	.	.	.	8.cc\J	.
8G\	.	.	.	.	.	.	.	.	.	.
8G\	.	4b\	.	4dd\	.	.	.	.	4ddM\	-ne-
8G\J	.	.	.	.	.	.	.	.	.	.
=231	=231	=231	=231	=231	=231	=231	=231	=231	=231	=231
8c\L	.	16cc\LL	.	16cc\LL	.	2ryy	.	.	4cc\	-ras
.	.	16cc\	.	16ee\	.	.	.	.	.	.
8c\	.	16cc\	.	16ee\	.	.	.	.	.	.
.	.	16cc\JJ	.	16ee\JJ	.	.	.	.	.	.
!	!	!LO:LB:g=original	!	!	!	!	!	!	!	!
8c\	.	16cc\LL	.	16ee\LL	.	.	.	.	4r	.
.	.	16cc\	.	16ee\	.	.	.	.	.	.
8c\J	.	16cc\	.	16ee\	.	.	.	.	.	.
.	.	16cc\JJ	.	16ee\JJ	.	.	.	.	.	.
!LO:LB:g=original	!	!	!	!	!	!	!	!	!	!
=232	=232	=232	=232	=232	=232	=232	=232	=232	=232	=232
8B\L	.	16cc\LL	.	16ee\LL	.	2ryy	.	.	4r	.
.	.	16cc\	.	16ee\	.	.	.	.	.	.
8B\	.	16cc\	.	16ee\	.	.	.	.	.	.
.	.	16cc\JJ	.	16ee\JJ	.	.	.	.	.	.
8B\	.	16cc\LL	.	16ee\LL	.	.	.	.	8.ee\	Car-
.	.	16cc\	.	16ee\	.	.	.	.	.	.
8B\J	.	16cc\	.	16ee\	.	.	.	.	.	.
.	.	16cc\JJ	.	16ee\JJ	.	.	.	.	16ee\	-ne
=233	=233	=233	=233	=233	=233	=233	=233	=233	=233	=233
*2\right	*	*2\right	*	*2\right	*	*	*	*	*	*
[2A#X\	.	2cc#X\	.	2ee\	.	2ryy	.	.	4ee\	De-
.	.	.	.	.	.	.	.	.	4e/	-um
=234	=234	=234	=234	=234	=234	=234	=234	=234	=234	=234
4A#\]	.	4cc\	.	4ee\	.	2ryy	.	.	4r	.
!	!	!	!	!LO:TX:a:t=adagio	!	!	!	!	!	!
4r	.	4r	.	4r	.	.	.	.	4ee\	ge-
=235	=235	=235	=235	=235	=235	=235	=235	=235	=235	=235
!LO:TX:b:t=adagio	!	!LO:TX:b:t=adagio	!	!	!	!	!	!	!	!
2B\	.	2b/	.	4ee\	.	2ryy	.	.	4g/	-ne-
.	.	.	.	4ee-X\	.	.	.	.	4f/	.
=236	=236	=236	=236	=236	=236	=236	=236	=236	=236	=236
4E\	.	4e/	.	4ee\	.	2ryy	.	.	4e/	-ras.
4r	.	4r	.	4r	.	.	.	.	4r	.
!LO:TX:b:t=Da Capo.	!	!LO:TX:b:t=Da Capo	!	!LO:TX:a:t=Da Capo	!	!	!	!	!LO:TX:b:t=Da Capo	!
==	==	==	==	==	==	==	==	==	==	==
*-	*-	*-	*-	*-	*-	*-	*-	*-	*-	*-
!!!system-decoration: [(s1,s2)][(s3,s4)]s5
!!!RDF**kern: > = above
!!!RDF**kern: < = below
!!!RDF**dynam: p = piano
!!!RDF**dynam: f = for.
!!!RDF**kern: | = vertical stroke
!!!EED: Leszek Kubiak
!!!EEV: 2020-10-12
!!!ENC: Berenika Jozajtis
!!!END: 2020-05-02
!!!YEC: Copyright 2022 Narodowy Instytut Fryderyka Chopina (https://polishscores.org)
!!!YEM: Licence CC BY 4.0 (https://creativecommons.org/licenses/by/4.0)
